!!!!SEGMENT: pl-cz--iii-226--004_fleming-jan--missa-in-c-sanctus.krn
!!!cenid: 17xx:218
!!!COM: Fleming, Jan
!!!COM-rismid: pe30093579
!!!CDT: <1796->1796
!!!CNT:
!!!OTL: Missa in C - Sanctus
!!!PDT:
!!!AGN: Sacred; Mass
!!!SMS-siglum: PL-CZ
!!!SMS-shelfmark: III-226
!!!SMS-shelfwork: 001-004 M
!!!NIFC-rismid:
!!!URL-scan: http://repozytorium.nifc.pl/skany/pl-cz-nut--iii-226
!!!ONB-nifc: UWAGA: części Mszy: Kyrie, Gloria, Credo, Sanctus, Agnus
**kern	**dynam	**kern	**dynam	**kern	**dynam	**kern	**text	**kern	**text	**kern	**text	**kern	**kern	**kern	**kern
*part10	*part10	*part9	*part9	*part8	*part8	*part7	*part7	*part6	*part6	*part5	*part5	*part4	*part3	*part2	*part1
*group4	*	*group4	*	*group4	*	*group3	*	*group3	*	*group3	*	*group2	*group2	*group1	*group1
*staff10	*	*staff9	*	*staff8	*	*staff7	*staff7	*staff6	*staff6	*staff5	*staff5	*staff4	*staff3	*staff2	*staff1
*I"Baſso.	*	*I"Violino Secondo.	*	*I"Violino Primo.	*	*I"Baſso	*	*I"Canto Secondo	*	*I"Canto Primo	*	*I"Cornu Secondo in C	*I"Cornu Primo in C.	*I"Fagoto Secondo.	*I"Fagotto Primo.
*I'Bc	*	*I'Vn II	*	*I'Vn I	*	*I'B	*	*I'C II	*	*I'C	*	*I'Cor II	*I'Cor I	*I'Fag. II	*I'Fag. I
*clefF4	*	*clefG2	*	*clefG2	*	*clefF4	*	*clefC1	*	*clefC1	*	*clefG2	*clefG2	*clefF4	*clefF4
*k[]	*	*k[]	*	*k[]	*	*k[]	*	*k[]	*	*k[]	*	*k[]	*k[]	*k[]	*k[]
*G:	*	*G:	*	*G:	*	*G:	*	*G:	*	*G:	*	*G:	*G:	*G:	*G:
*M4/4	*	*M4/4	*	*M4/4	*	*M4/4	*	*M4/4	*	*M4/4	*	*M4/4	*M4/4	*M4/4	*M4/4
*met(c)	*	*met(c)	*	*met(c)	*	*met(c)	*	*met(c)	*	*met(c)	*	*met(c)	*met(c)	*met(c)	*met(c)
=1	=1	=1	=1	=1	=1	=1	=1	=1	=1	=1	=1	=1	=1	=1	=1
!LO:TX:a:B:t=ad	!	!LO:TX:a:B:t=ad	!	!LO:TX:a:B:t=ad&colon;	!	!LO:TX:a:B:t=ad&colon;	!	!LO:TX:a:B:t=ad	!	!LO:TX:a:B:t=a	!	!	!LO:TX:a:B:t=a	!LO:TX:a:t=Tacet	!LO:TX:a:t=Tacet
!	!	!	!	!	!	!	!	!LO:TX:b:t=P:problem:"S" przed kluczem	!	!	!	!LO:TX:a:B:t=Sanctuſ	!LO:TX:b:B:t=Sanctuſ	!LO:TX:a:t=P:problem:instrument występuje tylko w części "Laudamuſ"	!LO:TX:a:t=P:problem:instrument występuje tylko w części "Laudamuſ"
!	!	!	!	!	!	!	!	!	!	!	!	!	!LO:TX:a:t=P:problem:wszystkie caudy z prawej strony, oznaczone tylko półnuty	!	!
8C/L	.	16r	.	16r	.	4c\	San-	4e/	[S]an-	4cc\	San-	4e/	4cc\	1ryy	1ryy
.	.	16ee\LL	.	16gg\`LL	.	.	.	.	.	.	.	.	.	.	.
8C/	.	16cc\	.	(16ee\	.	.	.	.	.	.	.	.	.	.	.
.	.	16ee\JJ	.	16cc\JJ)	.	.	.	.	.	.	.	.	.	.	.
8C/	.	16r	.	16r	.	8E\L	.	4g/	-ctuſ	4cc\	-ctuſ	4e/	4cc\	.	.
.	.	16ee\LL	.	16gg\`LL	.	.	.	.	.	.	.	.	.	.	.
8C/J	.	16cc\	.	(16ee\	.	8C\J	-ctuſ	.	.	.	.	.	.	.	.
.	.	16ee\JJ	.	16cc\JJ)	.	.	.	.	.	.	.	.	.	.	.
!	!	!	!	!	!	!	!	!	!	!LO:TX:a:t=:	!	!	!	!	!
*	*	*	*	*	*	*	*ij	*	*	*	*	*	*	*	*
8F\L	.	16r	.	16r	.	4F\	San-	4a\	San-	4cc\	San-	4c/	4cc\	.	.
.	.	16ff\LL	.	16aa\`LL	.	.	.	.	.	.	.	.	.	.	.
8F\	.	16cc\	.	(16ff\	.	.	.	.	.	.	.	.	.	.	.
.	.	16a\JJ	.	16cc\JJ)	.	.	.	.	.	.	.	.	.	.	.
8F\	.	16r	.	16r	.	4F\	-ctuſ	4a\	-ctuſ	4cc\	-ctuſ	4c/	4cc\	.	.
*	*	*	*	*	*	*	*Xij	*	*	*	*	*	*	*	*
.	.	16ff\LL	.	16aa\`LL	.	.	.	.	.	.	.	.	.	.	.
8F\J	.	16cc\	.	(16ff\	.	.	.	.	.	.	.	.	.	.	.
.	.	16a\JJ	.	16cc\JJ)	.	.	.	.	.	.	.	.	.	.	.
=2	=2	=2	=2	=2	=2	=2	=2	=2	=2	=2	=2	=2	=2	=2	=2
!	!	!	!	!	!	!LO:TX:a:t=P:problem:mixed beam	!	!	!	!	!	!	!	!	!
8D\L	.	16r	.	16r	.	8d\L	San-	4a\	San-	4dd\	San-	4dd\	4dd\	1ryy	1ryy
.	.	16ff#X\LL	.	16aa\`LL	.	.	.	.	.	.	.	.	.	.	.
8D\	.	16cc\	.	(16ff#X\	.	8D/J	.	.	.	.	.	.	.	.	.
.	.	16a\JJ	.	16cc\JJ)	.	.	.	.	.	.	.	.	.	.	.
8D\	.	16r	.	16r	.	8F#X\L	-ctuſ	4a\	-ctuſ	4dd\	-ctuſ	4dd\	4dd\	.	.
.	.	16ff#\LL	.	16aa\`LL	.	.	.	.	.	.	.	.	.	.	.
8D\J	.	16cc\	.	(16ff#\	.	8D\J	.	.	.	.	.	.	.	.	.
.	.	16a\JJ	.	16cc\JJ)	.	.	.	.	.	.	.	.	.	.	.
*	*	*	*	*	*	*	*ij	*	*	*	*	*	*	*	*
8G\L	.	16r	.	16r	.	4G\	San-	4b\	San-	4dd\	San-	4g/	4dd\	.	.
.	.	16gg\LL	.	16bb\`LL	.	.	.	.	.	.	.	.	.	.	.
8G\	.	16dd\	.	(16gg\	.	.	.	.	.	.	.	.	.	.	.
.	.	16b\JJ	.	16dd\JJ)	.	.	.	.	.	.	.	.	.	.	.
8G\	.	16r	.	16r	.	4G\	-ctuſ	4b\	-ctuſ	4dd\	-ctuſ	4g/	4dd\	.	.
*	*	*	*	*	*	*	*Xij	*	*	*	*	*	*	*	*
.	.	16gg\LL	.	16bb\`LL	.	.	.	.	.	.	.	.	.	.	.
8G\J	.	16dd\	.	(16gg\	.	.	.	.	.	.	.	.	.	.	.
.	.	16b\JJ	.	16dd\JJ)	.	.	.	.	.	.	.	.	.	.	.
=3	=3	=3	=3	=3	=3	=3	=3	=3	=3	=3	=3	=3	=3	=3	=3
8G\L	.	16r	.	16r	.	8G\	Do	8dd\	Do	8ff\	Do	4g/	4dd\	1ryy	1ryy
.	.	16ffn\LL	.	16bb\`LL	.	.	.	.	.	.	.	.	.	.	.
8G\	.	16dd\	.	(16gg\	.	16G\	-mi-	16dd\	-minuſ	16ff\	-mi-	.	.	.	.
.	.	16b\JJ	.	16ffn\JJ)	.	16G\	-nuſ	16dd\	.	16ff\	-nuſ	.	.	.	.
8B\	.	16r	.	16r	.	8B\	De-	8dd\	Deuſ	8ff\	Deuſ	8r	8r	.	.
.	.	16ff\LL	.	16bb\`LL	.	.	.	.	.	.	.	.	.	.	.
8G\J	.	16dd\	.	(16gg\	.	8G\	-uſ	8dd\	.	8ff\	.	8g/	8dd\	.	.
.	.	16b\JJ	.	16ff\JJ)	.	.	.	.	.	.	.	.	.	.	.
8c\L	.	16r	.	16r	.	8.c\	Sa-	8.cc\	Sa-	8.ee\	Sa-	8.cc\L	8.ee\L	.	.
.	.	16gg\LL	.	16ccc\`LL	.	.	.	.	.	.	.	.	.	.	.
8G\	.	16ee\	.	(16gg\	.	.	.	.	.	.	.	.	.	.	.
.	.	16cc\JJ	.	16ee\JJ)	.	16C/	-ba-	16cc\	-ba-	16ee\	-ba-	16cc\Jk	16ee\Jk	.	.
8E\	.	16r	.	16r	.	4C/	-oth	4cc\	-oth	4ee\	-oth	4cc\	4ee\	.	.
.	.	16gg\LL	.	16ccc\`LL	.	.	.	.	.	.	.	.	.	.	.
8C\J	.	16ee\	.	(16gg\	.	.	.	.	.	.	.	.	.	.	.
.	.	16cc\JJ	.	16ee\JJ)	.	.	.	.	.	.	.	.	.	.	.
=4	=4	=4	=4	=4	=4	=4	=4	=4	=4	=4	=4	=4	=4	=4	=4
!	!	!LO:LB:g=original	!	!LO:LB:g=original	!	!LO:LB:g=original	!	!	!	!	!	!	!	!	!
8D\L	.	16r	.	16r	.	8D\	Do	8ff#X\	Do	8cc\	Do	4g\	4dd\	1ryy	1ryy
.	.	16aa\LL	.	16ccc\`LL	.	.	.	.	.	.	.	.	.	.	.
8A\	.	16ff#X\	.	(16aa\	.	16A\	-mi-	16ff#\	-mi-	16cc\	-mi-	.	.	.	.
.	.	16cc\JJ	.	16ff#X\JJ)	.	16A\	-nuſ	16ff#\	-nuſ	16cc\	-nuſ	.	.	.	.
8F#X\	.	16r	.	16r	.	8F#X\	Deuſ	8ff#\	De-	8cc\	De-	8r	8r	.	.
.	.	16aa\LL	.	16ccc\`LL	.	.	.	.	.	.	.	.	.	.	.
8D\J	.	16ff#\	.	(16aa\	.	8D\	.	8ff#\	-uſ	8cc\	-uſ	8dd\	8dd\	.	.
.	.	16cc\JJ	.	16ff#X\JJ)	.	.	.	.	.	.	.	.	.	.	.
.	.	.	.	.	.	.	.	.	.	8qqcc/	.	.	.	.	.
!LO:TX:a:t=P:problem:mixed beam	!	!	!	!	!	!	!	!	!	!	!	!	!	!	!
8G\L	.	16r	.	16r	.	4.G\	Sa-	4.gg\	Sa-	4.b\	.	4g/	4dd\	.	.
.	.	16gg\LL	.	16bb\`LL	.	.	.	.	.	.	.	.	.	.	.
8GG/	.	16dd\	.	(16gg\	.	.	.	.	.	.	.	.	.	.	.
.	.	16b\JJ	.	16dd\JJ)	.	.	.	.	.	.	.	.	.	.	.
8BB/	.	16r	.	16r	.	.	.	.	.	.	.	8r	8r	.	.
.	.	16gg\LL	.	16bb\`LL	.	.	.	.	.	.	.	.	.	.	.
8D/J	.	16dd\	.	(16gg\	.	8G\	-baoth	8gg\	-ba-	8b\	Saba-	8g/	8dd\	.	.
.	.	16b\JJ	.	16cc\JJ)	.	.	.	.	.	.	.	.	.	.	.
=5	=5	=5	=5	=5	=5	=5	=5	=5	=5	=5	=5	=5	=5	=5	=5
8G\L	.	8b/L 8d/	.	8b\L	.	4G\	.	4gg\	-oth	4b\;	-oth	8g/L	8dd\L	1ryy	1ryy
8D\	.	8b/ 8d/	.	8gg\	.	.	.	.	.	.	.	16g/L	16dd\L	.	.
.	.	.	.	.	.	.	.	.	.	.	.	16g/JJ	16dd\JJ	.	.
8BB\	.	8b/ 8d/	.	8gg\	.	4r	.	4r	.	4r	.	8g/L	8dd\L	.	.
8D\J	.	8b/J 8d/	.	8gg\J	.	.	.	.	.	.	.	8g/J	8dd\J	.	.
4GG/	.	4b/ 4d/	.	4gg/ 4b/ 4d/ 4G/	.	2r	.	2r	.	2r	.	4g/	4dd\	.	.
4r	.	4r	.	4r	.	.	.	.	.	.	.	4r	4r	.	.
=6||	=6||	=6||	=6||	=6||	=6||	=6||	=6||	=6||	=6||	=6||	=6||	=6||	=6||	=6||	=6||
!	!	!	!	!	!	!	!	!LO:LB:g=original	!	!LO:LB:g=original	!	!LO:LB:g=original	!	!	!
*M3/8	*	*M3/8	*	*M3/8	*	*M3/8	*	*M3/8	*	*M3/8	*	*M3/8	*M3/8	*	*
!LO:TX:a:B:t=all	!	!LO:TX:a:B:t=all	!	!LO:TX:a:B:t=all	!	!LO:TX:b:B:t=all&colon;	!	!LO:TX:a:B:t=all	!	!LO:TX:a:B:t=ale	!	!LO:TX:a:B:t=all	!LO:TX:a:B:t=all	!	!
!LO:TX:b:B:t=Pleni	!	!LO:TX:b:B:t=Pleni	!	!LO:TX:b:B:t=Pleni	!	!	!	!	!	!	!	!LO:TX:b:B:t=Pleni	!LO:TX:b:B:t=Pleni	!	!
8c\L	.	16cc\LL	.	16ee\LL	.	8c\	Ple-	8cc\	Ple-	8ee\	Ple-	8cc\	8ee\	4.ryy	4.ryy
.	.	16ee\JJ	.	16ccc\JJ	.	.	.	.	.	.	.	.	.	.	.
8B\	.	8dd\L	.	8bb\L	.	8B\L	-ni	8.b\L	-ni	8.dd\L	-ni	4g/	4dd\	.	.
8G\J	.	8dd\J	.	8bb\J	.	8G\J	.	.	.	.	.	.	.	.	.
.	.	.	.	.	.	.	.	16dd\Jk	.	16ff\Jk	.	.	.	.	.
=7	=7	=7	=7	=7	=7	=7	=7	=7	=7	=7	=7	=7	=7	=7	=7
!	!	!	!	!	!	!	!	!	!	!	!	!	!LO:LB:g=original	!	!
8C\L	.	16ee\LL	.	16ccc\LL	.	8c\	Ple-	8cc\	Ple-	8ee\	ple-	8cc\	8ee\	4.ryy	4.ryy
.	.	16ee\JJ	.	16ccc\JJ	.	.	.	.	.	.	.	.	.	.	.
8G\	.	8dd\L	.	8bb\L	.	8B\L	-ni	8.b\L	-ni	8.dd\L	-ni	4g/	4dd\	.	.
8G\J	.	8dd\J	.	8bb\J	.	8G\J	.	.	.	.	.	.	.	.	.
.	.	.	.	.	.	.	.	16dd\Jk	.	16ff\Jk	.	.	.	.	.
=8	=8	=8	=8	=8	=8	=8	=8	=8	=8	=8	=8	=8	=8	=8	=8
8c\L	.	16ee\LL	.	16ccc\LL	.	8c\	ple-	8cc\	ple-	8ee\	ple-	8cc\	8ee\	4.ryy	4.ryy
.	.	16cc\JJ	.	16gg\	.	.	.	.	.	.	.	.	.	.	.
8A\	.	8a/L	.	16aa\	.	8A\	-ni	8a\	-ni	8ff\	-ni	8r	8r	.	.
.	.	.	.	16ff\	.	.	.	.	.	.	.	.	.	.	.
8F\J	.	8f/J	.	16dd\	.	8F\	Sunt	8f/	Sunt	8dd\	ſunt	8r	8r	.	.
.	.	.	.	16cc\JJ	.	.	.	.	.	.	.	.	.	.	.
=9	=9	=9	=9	=9	=9	=9	=9	=9	=9	=9	=9	=9	=9	=9	=9
!LO:LB:g=original	!	!	!	!	!	!LO:LB:g=original	!	!	!	!	!	!	!	!	!
8G\L	.	8d/L	.	8b\L	.	8G\	cae-	8d/	Cae-	8b\	Cae-	8g/L	8dd\L	4.ryy	4.ryy
8C\J	.	8e/J	.	8cc\J	.	8C/	-li	8e/	-li	8cc\	-li	8e/J	8cc\J	.	.
8r	.	8r	.	8r	.	8r	.	8r	.	8r	.	8r	8r	.	.
=10	=10	=10	=10	=10	=10	=10	=10	=10	=10	=10	=10	=10	=10	=10	=10
!	!	!	!	!LO:LB:g=original	!	!	!	!	!	!	!	!	!	!	!
*	*	*	*	*	*below	*	*	*	*	*	*	*	*	*	*
!	!LO:DY:rj	!	!	!	!LO:DY:t=pia	!LO:N:vis=00	!	!LO:N:vis=00	!	!LO:N:vis=00	!	!LO:N:vis=00	!LO:N:vis=00	!	!
8C\L	p	8e/L	p	16g/LL	p	1.r	.	1.r	.	1.r	.	1.r	1.r	4.ryy	4.ryy
.	.	.	.	16cc\JJ	.	.	.	.	.	.	.	.	.	.	.
8E\	.	8e/	.	8.g/L	.	.	.	.	.	.	.	.	.	.	.
8C\J	.	8e/J	.	.	.	.	.	.	.	.	.	.	.	.	.
.	.	.	.	16g#X/Jk	.	.	.	.	.	.	.	.	.	.	.
=11	=11	=11	=11	=11	=11	=11	=11	=11	=11	=11	=11	=11	=11	=11	=11
8F\L	.	8f/L	.	(16g/LL	.	.	.	.	.	.	.	.	.	4.ryy	4.ryy
.	.	.	.	16a/JJ)	.	.	.	.	.	.	.	.	.	.	.
8C\	.	8f/	.	4a/	.	.	.	.	.	.	.	.	.	.	.
8F\J	.	8f/J	.	.	.	.	.	.	.	.	.	.	.	.	.
=12	=12	=12	=12	=12	=12	=12	=12	=12	=12	=12	=12	=12	=12	=12	=12
*	*	*^	*	*	*	*	*	*	*	*	*	*	*	*	*
8D\L	.	8a/L	8f#X\L	.	(16a\LL	.	.	.	.	.	.	.	.	.	4.ryy	4.ryy
.	.	.	.	.	16dd\JJ)	.	.	.	.	.	.	.	.	.	.	.
8F#X\	.	8a/	8f#\	.	8.a/	.	.	.	.	.	.	.	.	.	.	.
8D\J	.	8a/J	8f#\J	.	.	.	.	.	.	.	.	.	.	.	.	.
.	.	.	.	.	16a#X/	.	.	.	.	.	.	.	.	.	.	.
=13	=13	=13	=13	=13	=13	=13	=13	=13	=13	=13	=13	=13	=13	=13	=13	=13
!LO:TX:a:t=P:problem:mixed beam	!	!	!	!	!	!	!	!	!	!	!	!	!	!	!	!
8G\L	.	8b/L	8g\L	.	(16a/LL	.	.	.	.	.	.	.	.	.	4.ryy	4.ryy
.	.	.	.	.	16b\JJ)	.	.	.	.	.	.	.	.	.	.	.
8D\	.	8b/	8g\	.	4b/	.	.	.	.	.	.	.	.	.	.	.
8GG/J	.	8b/J	8g\J	.	.	.	.	.	.	.	.	.	.	.	.	.
*	*	*v	*v	*	*	*	*	*	*	*	*	*	*	*	*	*
=14	=14	=14	=14	=14	=14	=14	=14	=14	=14	=14	=14	=14	=14	=14	=14
!	!	!LO:LB:g=original	!	!	!	!	!	!	!	!	!	!	!	!	!
!	!	!	!LO:DY:rj	!	!LO:DY:rj:t=fo	!	!	!	!	!	!	!	!	!	!
8G\L	f	8g\L	f	16g\LL	f	8G\	glo	8g\	Cae-	8g\	glo	4g/	4dd\	4.ryy	4.ryy
.	.	.	.	16gg\	.	.	.	.	.	.	.	.	.	.	.
8B\	.	8dd\	.	16ff\	.	8B\	-ria	8dd\	-li	8ff\	-ri-	.	.	.	.
.	.	.	.	16ddd\	.	.	.	.	.	.	.	.	.	.	.
8c\J	.	8cc\J	.	16ee\	.	8c\	.	8cc\	et	8ee\	-a	8cc\	8ee\	.	.
.	.	.	.	16ccc\JJ	.	.	.	.	.	.	.	.	.	.	.
=15	=15	=15	=15	=15	=15	=15	=15	=15	=15	=15	=15	=15	=15	=15	=15
!LO:TX:a:t=P:problem:mixed beam	!	!	!	!	!	!	!	!	!	!	!	!	!	!	!
8G\L	.	16cc\LL	.	16ee\LL	.	8G\	tua	8cc\	ter-	8ee\	tu-	8cc\L	8ee\L	4.ryy	4.ryy
.	.	16b\J	.	16dd\J	.	.	.	.	.	.	.	.	.	.	.
8D\	.	8b\J	.	8dd\J	.	8G\	.	8b\	-ra	8dd\	-a	8g\J	8dd\J	.	.
8GG/J	.	8r	.	8r	.	8r	.	8r	.	8r	.	8r	8r	.	.
=16	=16	=16	=16	=16	=16	=16	=16	=16	=16	=16	=16	=16	=16	=16	=16
!	!	!	!	!	!LO:DY:rj:t=p&colon;	!LO:N:vis=00	!	!LO:N:vis=00	!	!LO:N:vis=00	!	!LO:N:vis=00	!LO:N:vis=00	!	!
8C\L	p	8e/L	p	(16g/LL	p	1.r	.	1.r	.	1.r	.	1.r	1.r	4.ryy	4.ryy
.	.	.	.	16cc\JJ)	.	.	.	.	.	.	.	.	.	.	.
8E\	.	8e/	.	8.g/L	.	.	.	.	.	.	.	.	.	.	.
8C\J	.	8e/J	.	.	.	.	.	.	.	.	.	.	.	.	.
.	.	.	.	16g#X/Jk	.	.	.	.	.	.	.	.	.	.	.
=17	=17	=17	=17	=17	=17	=17	=17	=17	=17	=17	=17	=17	=17	=17	=17
8F\L	.	8f/L	.	(16g/LL	.	.	.	.	.	.	.	.	.	4.ryy	4.ryy
.	.	.	.	16a/JJ)	.	.	.	.	.	.	.	.	.	.	.
8C\	.	8f/	.	4a/	.	.	.	.	.	.	.	.	.	.	.
8F\J	.	8f/J	.	.	.	.	.	.	.	.	.	.	.	.	.
=18	=18	=18	=18	=18	=18	=18	=18	=18	=18	=18	=18	=18	=18	=18	=18
*	*	*^	*	*	*	*	*	*	*	*	*	*	*	*	*
8D\L	.	8a/L	8f#X\L	.	(16a\LL	.	.	.	.	.	.	.	.	.	4.ryy	4.ryy
.	.	.	.	.	16dd\JJ)	.	.	.	.	.	.	.	.	.	.	.
8F#X\	.	8a/	8f#\	.	8.a/L	.	.	.	.	.	.	.	.	.	.	.
8D\J	.	8a/J	8f#\J	.	.	.	.	.	.	.	.	.	.	.	.	.
.	.	.	.	.	16a#X/Jk	.	.	.	.	.	.	.	.	.	.	.
=19	=19	=19	=19	=19	=19	=19	=19	=19	=19	=19	=19	=19	=19	=19	=19	=19
!LO:TX:a:t=P:problem:mixed beam	!	!	!	!	!	!	!	!	!	!	!	!	!	!	!	!
8G\L	.	8b/L	8g\L	.	16a/LL	.	.	.	.	.	.	.	.	.	4.ryy	4.ryy
.	.	.	.	.	16b\J	.	.	.	.	.	.	.	.	.	.	.
8D\	.	8b/	8g\	.	8b\	.	.	.	.	.	.	.	.	.	.	.
8GG/J	.	8b/J	8g\J	.	8b\J	.	.	.	.	.	.	.	.	.	.	.
*	*	*v	*v	*	*	*	*	*	*	*	*	*	*	*	*	*
=20	=20	=20	=20	=20	=20	=20	=20	=20	=20	=20	=20	=20	=20	=20	=20
!	!	!	!	!LO:PB:g=original	!	!	!	!	!	!	!	!	!	!	!
!	!	!	!LO:DY:rj	!	!LO:DY:rj	!	!	!	!	!	!	!	!	!	!
8G\L	f	8g\L	f	16g\LL	f	8G\	glo	8g\	cae-	8g\	glo	4g/	4dd\	4.ryy	4.ryy
.	.	.	.	16gg\	.	.	.	.	.	.	.	.	.	.	.
8B\	.	8dd\	.	16ff\	.	8B\	ria	8dd\	-li	8ff\	-ri-	.	.	.	.
.	.	.	.	16ddd\	.	.	.	.	.	.	.	.	.	.	.
8c\J	.	8cc\J	.	16ee\	.	8c\	.	8cc\	et	8ee\	-a	8cc\	8ee\	.	.
.	.	.	.	16ccc\JJ	.	.	.	.	.	.	.	.	.	.	.
=21	=21	=21	=21	=21	=21	=21	=21	=21	=21	=21	=21	=21	=21	=21	=21
!LO:TX:a:t=P:problem:mixed beam	!	!	!	!	!	!	!	!	!	!	!	!	!	!	!
8G\L	.	16cc\LL	.	16ee\LL	.	8G\	tua	8cc\	ter-	8ee\	tu-	8cc\L	8ee\L	4.ryy	4.ryy
.	.	16b\J	.	16dd\J	.	.	.	.	.	.	.	.	.	.	.
8D\	.	8b\J	.	8dd\J	.	8G\	.	8b\	-ra	8dd\	-a	8g\J	8dd\J	.	.
8GG/J	.	8r	.	8r	.	8r	.	8r	.	8r	.	8r	8r	.	.
=22	=22	=22	=22	=22	=22	=22	=22	=22	=22	=22	=22	=22	=22	=22	=22
!	!	!	!	!	!	!	!	!LO:LB:g=original	!	!LO:LB:g=original	!	!	!	!	!
!LO:TX:a:t=P:problem:mixed beam	!	!	!	!	!	!	!	!	!	!	!	!	!	!	!
8C/L	.	16cc\LL	.	16ee\LL	.	8.c\	glo	8.cc\	glo	8.ee\	glo	8cc\	8ee\	4.ryy	4.ryy
.	.	16ee\	.	16ccc\	.	.	.	.	.	.	.	.	.	.	.
8c\	.	16ee\	.	16ccc\	.	.	.	.	.	.	.	8r	8r	.	.
.	.	16cc\	.	16ee\	.	16c\	-ria	16cc\	-ri-	16ee\	-ri-	.	.	.	.
8G\J	.	16b\	.	16dd\	.	8G\	.	8b\	-a	8dd\	-a	8g/	8dd\	.	.
.	.	16dd\JJ	.	16bb\JJ	.	.	.	.	.	.	.	.	.	.	.
=23	=23	=23	=23	=23	=23	=23	=23	=23	=23	=23	=23	=23	=23	=23	=23
!	!	!	!	!	!	!LO:LB:g=original	!	!	!	!	!	!	!	!	!
!LO:TX:a:t=P:problem:mixed beam	!	!	!	!	!	!	!	!	!	!	!	!	!	!	!
8C/L	.	16cc\LL	.	16ee\LL	.	8.c\	glo	8.cc\	glo	8.ee\	glo	8cc\	8ee\	4.ryy	4.ryy
.	.	16ee\	.	16ccc\	.	.	.	.	.	.	.	.	.	.	.
8c\	.	16ee\	.	16ccc\	.	.	.	.	.	.	.	8r	8r	.	.
.	.	16cc\	.	16ee\	.	16c\	-ria	16cc\	ria	16ee\	-ria	.	.	.	.
8G\J	.	16b\	.	16dd\	.	8G\	.	8b\	.	8dd\	.	8g/	8dd\	.	.
.	.	16dd\JJ	.	16bb\JJ	.	.	.	.	.	.	.	.	.	.	.
=24	=24	=24	=24	=24	=24	=24	=24	=24	=24	=24	=24	=24	=24	=24	=24
!	!	!	!	!	!	!	!	!	!	!	!	!LO:LB:g=original	!	!	!
8c\L	.	8ee\L	.	8ccc\L	.	8c\	glo	8cc\	glo	8ee\	glo	4cc\	4ee\	4.ryy	4.ryy
8G\	.	16ee\L	.	16gg\L	.	8G\	-ri-	8g\	-ria	8dd\	-ri-	.	.	.	.
.	.	16dd\	.	16ff\	.	.	.	.	.	.	.	.	.	.	.
8C\J	.	16cc\	.	16ee\	.	16E\LL	-a	8e/	.	8cc\	-a	8r	8r	.	.
.	.	16ee\JJ	.	16gg\JJ	.	16C\JJ	.	.	.	.	.	.	.	.	.
=25	=25	=25	=25	=25	=25	=25	=25	=25	=25	=25	=25	=25	=25	=25	=25
!LO:TX:a:t=P:problem:mixed beam	!	!	!	!	!	!	!	!	!	!	!	!	!	!	!
8F\L	.	16dd\LL	.	16ff\LL	.	8F\	tu-	8f/	tu-	8dd\	tu-	8r	8r	4.ryy	4.ryy
.	.	16ff\	.	16aa\	.	.	.	.	.	.	.	.	.	.	.
!	!	!	!	!	!	!LO:TX:a:t=P:problem:mixed beam	!	!	!	!	!	!	!	!	!
8G\	.	16ee\	.	16gg\	.	8G\L	.	8e/L	.	8cc\L	.	8r	8r	.	.
.	.	16dd\	.	16ff\	.	.	.	.	.	.	.	.	.	.	.
8GG/J	.	16cc\	.	16ee\	.	8GG/J	.	8d/J	.	8b\J	.	8g/	8dd\	.	.
.	.	16b\JJ	.	16dd\JJ	.	.	.	.	.	.	.	.	.	.	.
=26	=26	=26	=26	=26	=26	=26	=26	=26	=26	=26	=26	=26	=26	=26	=26
!	!	!	!	!	!	!	!	!	!	!	!	!	!LO:LB:g=original	!	!
8C/L	.	16cc\LL	.	16ee\LL	.	4C/	-a	4e/	-a	4cc\	-a	4e/	4cc\	4.ryy	4.ryy
.	.	16ee\	.	16ccc\	.	.	.	.	.	.	.	.	.	.	.
8C/	.	16ee\	.	16ccc\	.	.	.	.	.	.	.	.	.	.	.
.	.	16ee\	.	16ccc\JJ	.	.	.	.	.	.	.	.	.	.	.
8C/J	.	16ee\	.	16gg\LL	.	8C/	o	8e/	o	8g\	o	8e/	8cc\	.	.
.	.	16ee\JJ	.	16gg\JJ	.	.	.	.	.	.	.	.	.	.	.
=27	=27	=27	=27	=27	=27	=27	=27	=27	=27	=27	=27	=27	=27	=27	=27
!LO:LB:g=original	!	!LO:LB:g=original	!	!LO:LB:g=original	!	!	!	!	!	!	!	!	!	!	!
8F\L	.	16ff\LL	.	16aa\LL	.	8F\	San-	8f/	San-	8a\	San-	8c/L	8cc\L	4.ryy	4.ryy
.	.	16ff\	.	16aa\	.	.	.	.	.	.	.	.	.	.	.
8F\	.	16ff\	.	16aa\	.	8F\	-na	8f/	-na	8a\	-na	8c/	8cc\	.	.
.	.	16ff\	.	16aa\	.	.	.	.	.	.	.	.	.	.	.
8C\J	.	16ee\	.	16gg\	.	8C/	o	8e/	o	8g\	o	8c/J	8cc\J	.	.
.	.	16ee\JJ	.	16gg\JJ	.	.	.	.	.	.	.	.	.	.	.
=28	=28	=28	=28	=28	=28	=28	=28	=28	=28	=28	=28	=28	=28	=28	=28
8F\L	.	16ff\LL	.	16aa\LL	.	8F\	San-	8f/	San-	8a\	San-	8c/L	8cc\L	4.ryy	4.ryy
.	.	16ff\	.	16aa\	.	.	.	.	.	.	.	.	.	.	.
8F\	.	16ff\	.	16aa\	.	8F\	-na	8f/	-na	8a\	-na	8c/	8cc\	.	.
.	.	16ff\	.	16aa\	.	.	.	.	.	.	.	.	.	.	.
8C\J	.	16ee\	.	16gg\	.	16C/	in	16e/	in	16g\	in	8c/J	8cc\J	.	.
.	.	16ee\JJ	.	16gg\JJ	.	16C/	ex-	16e/	ex-	16g\	ex-	.	.	.	.
=29	=29	=29	=29	=29	=29	=29	=29	=29	=29	=29	=29	=29	=29	=29	=29
8F\L	.	16cc\LL	.	16ff\LL	.	4.F\	-cel-	4.f/	-cel-	4.a\	-cel-	8c/L	8cc\L	4.ryy	4.ryy
.	.	16ff\	.	16aa\	.	.	.	.	.	.	.	.	.	.	.
8F\	.	16ff\	.	16aa\	.	.	.	.	.	.	.	8c/	8cc\	.	.
.	.	16ff\	.	16aa\	.	.	.	.	.	.	.	.	.	.	.
8F\J	.	16ff\	.	16aa\	.	.	.	.	.	.	.	8c/J	8cc\J	.	.
.	.	16ff\JJ	.	16aa\JJ	.	.	.	.	.	.	.	.	.	.	.
=30	=30	=30	=30	=30	=30	=30	=30	=30	=30	=30	=30	=30	=30	=30	=30
.	.	8qqff/	.	.	.	.	.	.	.	.	.	.	.	.	.
!	!	!LO:N:vis=4.	!	!	!	!	!	!	!	!	!	!	!	!	!
4C/;<	.	4ee\;	.	4gg\;	.	4C/;<	-sis	4e/	-siſ	4g\;	-sis	4c/	4cc\	4.ryy	4.ryy
8r	.	8r	.	8r	.	8r	.	8r	.	8r	.	8r	8r	.	.
=31||	=31||	=31||	=31||	=31||	=31||	=31||	=31||	=31||	=31||	=31||	=31||	=31||	=31||	=31||	=31||
!	!	!	!	!	!	!	!	!LO:LB:g=original	!	!	!	!	!	!	!
*k[f#]	*	*k[f#]	*	*k[f#]	*	*	*	*k[f#]	*	*k[f#]	*	*	*	*	*
*G:	*	*G:	*	*G:	*	*	*	*G:	*	*G:	*	*	*	*	*
*M3/4	*	*M3/4	*	*M3/4	*	*	*	*M3/4	*	*M3/4	*	*	*	*	*
!	!	!	!	!	!	!	!	!	!	!	!	!LO:TX:a:B:t=benedictuſ Tacet	!LO:TX:a:B:t=Benedictuſ Tacet	!	!
!LO:TX:a:B:t=LO:TX:a:B:t=P:problem:nieczytelny napis na górze	!	!	!	!LO:TX:a:B:t=Mod	!	!LO:TX:a:t=Benedictuſ Tacet	!	!LO:TX:a:B:t=LO:TX:a:B:t=P:problem:nieczytelny napis na górze	!	!LO:TX:a:B:t=P:problem:nieczytelny napis na górze	!	!	!	!	!
!LO:TX:b:B:t=Benedictus	!	!LO:TX:b:B:t=benedictus	!	!LO:TX:b:B:t=Benedictus	!	!	!	!LO:TX:a:t=25:problem:pauzy do rozpisania na 24 takty	!	!LO:TX:a:t=24:problem:w rzeczywistości 25	!	!	!	!	!
!LO:TX:a:t=P:problem:mixed beam	!	!	!	!	!	!	!	!LO:N:vis=00	!	!LO:N:vis=00	!	!	!	!	!
8G\L	.	8b\	.	8gg\	.	2.ryy	.	0.r	.	0.r	.	2.ryy	2.ryy	2.ryy	2.ryy
8GG/	.	4B/	.	4g/	.	.	.	.	.	.	.	.	.	.	.
8BB/	.	.	.	.	.	.	.	.	.	.	.	.	.	.	.
8GG/	.	4B/	.	4g/	.	.	.	.	.	.	.	.	.	.	.
8BB/	.	.	.	.	.	.	.	.	.	.	.	.	.	.	.
8GG/J	.	8B/	.	8g/	.	.	.	.	.	.	.	.	.	.	.
=32	=32	=32	=32	=32	=32	=32	=32	=32	=32	=32	=32	=32	=32	=32	=32
.	.	.	.	8qqcc#X/	.	.	.	.	.	.	.	.	.	.	.
4D\	.	16d/LL	.	8dd\	.	2.ryy	.	.	.	.	.	2.ryy	2.ryy	2.ryy	2.ryy
.	.	16f#/J	.	.	.	.	.	.	.	.	.	.	.	.	.
.	.	8a/J	.	4d/	.	.	.	.	.	.	.	.	.	.	.
8D\L	.	8a/L 8f#/	.	.	.	.	.	.	.	.	.	.	.	.	.
8D\	.	8a/ 8f#/	.	4d/	.	.	.	.	.	.	.	.	.	.	.
8F#\	.	8f#/	.	.	.	.	.	.	.	.	.	.	.	.	.
8D\J	.	8d/J	.	8d#X/	.	.	.	.	.	.	.	.	.	.	.
=33	=33	=33	=33	=33	=33	=33	=33	=33	=33	=33	=33	=33	=33	=33	=33
8C/L	.	8c/	.	8e/	.	2.ryy	.	.	.	.	.	2.ryy	2.ryy	2.ryy	2.ryy
8C/	.	4c/	.	4e/	.	.	.	.	.	.	.	.	.	.	.
8C/	.	.	.	.	.	.	.	.	.	.	.	.	.	.	.
8C/J	.	8c/	.	8e/	.	.	.	.	.	.	.	.	.	.	.
8AA/L	.	8e/L	.	16cc\LL	.	.	.	.	.	.	.	.	.	.	.
.	.	.	.	16a/	.	.	.	.	.	.	.	.	.	.	.
8D\J	.	16d/L	.	16g/	.	.	.	.	.	.	.	.	.	.	.
.	.	16c/JJ	.	16f#/JJ	.	.	.	.	.	.	.	.	.	.	.
=34	=34	=34	=34	=34	=34	=34	=34	=34	=34	=34	=34	=34	=34	=34	=34
4G\	.	8B/L	.	16g/LL	.	2.ryy	.	.	.	.	.	2.ryy	2.ryy	2.ryy	2.ryy
.	.	.	.	16d/	.	.	.	.	.	.	.	.	.	.	.
.	.	8g/	.	16b\	.	.	.	.	.	.	.	.	.	.	.
.	.	.	.	16g/JJ	.	.	.	.	.	.	.	.	.	.	.
4G\	.	8b\	.	16dd\LL	.	.	.	.	.	.	.	.	.	.	.
.	.	.	.	16b\	.	.	.	.	.	.	.	.	.	.	.
.	.	8b\	.	16gg\	.	.	.	.	.	.	.	.	.	.	.
.	.	.	.	16dd\JJ	.	.	.	.	.	.	.	.	.	.	.
4G\	.	8b\	.	16bb\LL	.	.	.	.	.	.	.	.	.	.	.
.	.	.	.	16dd\	.	.	.	.	.	.	.	.	.	.	.
.	.	8g/J	.	16cc\	.	.	.	.	.	.	.	.	.	.	.
.	.	.	.	16b\JJ	.	.	.	.	.	.	.	.	.	.	.
=35	=35	=35	=35	=35	=35	=35	=35	=35	=35	=35	=35	=35	=35	=35	=35
!	!	!LO:LB:g=original	!	!	!	!	!	!	!	!	!	!	!	!	!
!	!	!	!	!	!	!	!	!LO:N:vis=00	!	!LO:N:vis=00	!	!	!	!	!
8C/L	.	16e/LL	.	8e/	.	2.ryy	.	0.r	.	0.r	.	2.ryy	2.ryy	2.ryy	2.ryy
.	.	16c/JJ	.	.	.	.	.	.	.	.	.	.	.	.	.
8C/	.	4c/	.	4e/	.	.	.	.	.	.	.	.	.	.	.
8C/	.	.	.	.	.	.	.	.	.	.	.	.	.	.	.
8C/	.	8c/	.	8e/	.	.	.	.	.	.	.	.	.	.	.
8AA/	.	8d/L	.	16cc\LL	.	.	.	.	.	.	.	.	.	.	.
.	.	.	.	16a/	.	.	.	.	.	.	.	.	.	.	.
8D\J	.	16f#/L	.	16g/	.	.	.	.	.	.	.	.	.	.	.
.	.	16a/JJ	.	16f#/JJ	.	.	.	.	.	.	.	.	.	.	.
=36	=36	=36	=36	=36	=36	=36	=36	=36	=36	=36	=36	=36	=36	=36	=36
!LO:TX:a:t=P:problem:mixed beam	!	!	!	!	!	!	!	!	!	!	!	!	!	!	!
8GG/L	.	8.g/L	.	8.g/L	.	2.ryy	.	.	.	.	.	2.ryy	2.ryy	2.ryy	2.ryy
8G\	.	.	.	.	.	.	.	.	.	.	.	.	.	.	.
.	.	16d/Jk	.	16d/Jk	.	.	.	.	.	.	.	.	.	.	.
8D\	.	4B/	.	4G/	.	.	.	.	.	.	.	.	.	.	.
8BB\J	.	.	.	.	.	.	.	.	.	.	.	.	.	.	.
4GG/	.	4r	.	4r	.	.	.	.	.	.	.	.	.	.	.
=37	=37	=37	=37	=37	=37	=37	=37	=37	=37	=37	=37	=37	=37	=37	=37
8r	.	8r	.	16b\LL	.	2.ryy	.	.	.	.	.	2.ryy	2.ryy	2.ryy	2.ryy
.	.	.	.	16cc#X\	.	.	.	.	.	.	.	.	.	.	.
8G\L	.	8b/L 8g/	.	16dd\	.	.	.	.	.	.	.	.	.	.	.
.	.	.	.	16cc#\JJ	.	.	.	.	.	.	.	.	.	.	.
8G\	.	8b/ 8g/	.	8dd\L	.	.	.	.	.	.	.	.	.	.	.
8G\	.	8b/ 8g/	.	8dd\J	.	.	.	.	.	.	.	.	.	.	.
8G\	.	8b/ 8g/	.	16dd\LL	.	.	.	.	.	.	.	.	.	.	.
.	.	.	.	16b\	.	.	.	.	.	.	.	.	.	.	.
8G\J	.	8b/J 8g/	.	16a\	.	.	.	.	.	.	.	.	.	.	.
.	.	.	.	16g\JJ	.	.	.	.	.	.	.	.	.	.	.
=38	=38	=38	=38	=38	=38	=38	=38	=38	=38	=38	=38	=38	=38	=38	=38
!LO:LB:g=original	!	!	!	!LO:LB:g=original	!	!	!	!	!	!	!	!	!	!	!
8F#\L	.	8r	.	16a\LL	.	2.ryy	.	.	.	.	.	2.ryy	2.ryy	2.ryy	2.ryy
.	.	.	.	16cc#X\	.	.	.	.	.	.	.	.	.	.	.
8D\	.	8a/L 8f#/	.	16dd\	.	.	.	.	.	.	.	.	.	.	.
.	.	.	.	16cc#\JJ	.	.	.	.	.	.	.	.	.	.	.
8D\	.	8a/ 8f#/	.	8dd\L	.	.	.	.	.	.	.	.	.	.	.
8D\	.	8a/ 8f#/	.	8dd\J	.	.	.	.	.	.	.	.	.	.	.
8D\	.	8a/ 8f#/	.	16dd\LL	.	.	.	.	.	.	.	.	.	.	.
.	.	.	.	16a\	.	.	.	.	.	.	.	.	.	.	.
8D\J	.	8a/J 8f#/	.	16g\	.	.	.	.	.	.	.	.	.	.	.
.	.	.	.	16f#\JJ	.	.	.	.	.	.	.	.	.	.	.
=39	=39	=39	=39	=39	=39	=39	=39	=39	=39	=39	=39	=39	=39	=39	=39
!	!	!	!	!	!	!	!	!LO:N:vis=00	!	!LO:N:vis=00	!	!	!	!	!
4AA/	.	8a\L	.	8a\L	.	2.ryy	.	0.r	.	0.r	.	2.ryy	2.ryy	2.ryy	2.ryy
.	.	8cc#X\J	.	16cc#X\L	.	.	.	.	.	.	.	.	.	.	.
.	.	.	.	16ee\JJ	.	.	.	.	.	.	.	.	.	.	.
.	.	.	.	8qqaa/	.	.	.	.	.	.	.	.	.	.	.
8C#X/L	.	4ee\	.	4gg\	.	.	.	.	.	.	.	.	.	.	.
8AA/J	.	.	.	.	.	.	.	.	.	.	.	.	.	.	.
8D\L	.	8dd\L	.	8ff#\L	.	.	.	.	.	.	.	.	.	.	.
8d\J	.	8ff#\J	.	16aa\L	.	.	.	.	.	.	.	.	.	.	.
.	.	.	.	16ddd\JJ	.	.	.	.	.	.	.	.	.	.	.
=40	=40	=40	=40	=40	=40	=40	=40	=40	=40	=40	=40	=40	=40	=40	=40
.	.	.	.	8qqgg/	.	.	.	.	.	.	.	.	.	.	.
8A\L	.	8dd\L	.	8ff#\L	.	2.ryy	.	.	.	.	.	2.ryy	2.ryy	2.ryy	2.ryy
8A\	.	8cc#X\J	.	8ee\J	.	.	.	.	.	.	.	.	.	.	.
8E\	.	4cc#\	.	4ee\	.	.	.	.	.	.	.	.	.	.	.
8C#X\J	.	.	.	.	.	.	.	.	.	.	.	.	.	.	.
4AA/	.	4r	.	4r	.	.	.	.	.	.	.	.	.	.	.
=41	=41	=41	=41	=41	=41	=41	=41	=41	=41	=41	=41	=41	=41	=41	=41
.	.	.	.	16qqee/LL	.	.	.	.	.	.	.	.	.	.	.
.	.	.	.	16qqff#/JJ	.	.	.	.	.	.	.	.	.	.	.
!	!	!LO:TX:a:t=P:problem:mixed beam	!	!LO:TX:a:t=P:problem:mixed beam	!LO:DY:t=f&colon;	!	!	!	!	!	!	!	!	!	!
8r	.	8ee\`L	f	8gg\'L	f	2.ryy	.	.	.	.	.	2.ryy	2.ryy	2.ryy	2.ryy
8AA/L	.	8e/'	p	8g/'	p	.	.	.	.	.	.	.	.	.	.
8C#X/	.	8e/'	.	8g/'	.	.	.	.	.	.	.	.	.	.	.
8AA/	.	8e/'	.	8g/'	.	.	.	.	.	.	.	.	.	.	.
8C#/	.	8e/'	.	8g/'	.	.	.	.	.	.	.	.	.	.	.
8AA/J	.	8e/'J	.	8g/'J	.	.	.	.	.	.	.	.	.	.	.
=42	=42	=42	=42	=42	=42	=42	=42	=42	=42	=42	=42	=42	=42	=42	=42
!	!	!	!	!	!LO:DY:t=fo	!	!	!	!	!	!	!	!	!	!
4D\	.	16d/LL	.	16f#/LL	f	2.ryy	.	.	.	.	.	2.ryy	2.ryy	2.ryy	2.ryy
.	.	16f#/	.	16a/	.	.	.	.	.	.	.	.	.	.	.
.	.	16g/	.	16b/	.	.	.	.	.	.	.	.	.	.	.
.	.	16e/JJ	.	16cc#X/JJ	.	.	.	.	.	.	.	.	.	.	.
4r	.	16f#/LL	.	16dd\LL	.	.	.	.	.	.	.	.	.	.	.
.	.	16e/	.	16cc#\	.	.	.	.	.	.	.	.	.	.	.
.	.	16f#/	.	16dd\	.	.	.	.	.	.	.	.	.	.	.
.	.	16a/JJ	.	16ee\JJ	.	.	.	.	.	.	.	.	.	.	.
4D\	.	16dd\LL	.	16ff#\LL	.	.	.	.	.	.	.	.	.	.	.
.	.	16cc#X\	.	16ee\	.	.	.	.	.	.	.	.	.	.	.
.	.	16dd\	.	16ff#\	.	.	.	.	.	.	.	.	.	.	.
.	.	16ff#\JJ	.	16aa\JJ	.	.	.	.	.	.	.	.	.	.	.
=43	=43	=43	=43	=43	=43	=43	=43	=43	=43	=43	=43	=43	=43	=43	=43
!	!	!LO:LB:g=original	!	!	!	!	!	!	!	!	!	!	!	!	!
.	.	16qqcc/LL	.	16qqee/LL	.	.	.	.	.	.	.	.	.	.	.
.	.	16qqdd/JJ	.	16qqff#/JJ	.	.	.	.	.	.	.	.	.	.	.
!LO:TX:a:t=P:problem:mixed beam	!	!LO:TX:a:t=P:problem:mixed beam	!	!LO:TX:a:t=P:problem:mixed beam	!	!	!	!LO:N:vis=00	!	!LO:N:vis=00	!	!	!	!	!
8A\L	.	8ee\L	.	8gg\'L	f	2.ryy	.	0.r	.	0.r	.	2.ryy	2.ryy	2.ryy	2.ryy
8AA/	.	8e/	.	8g/'	p	.	.	.	.	.	.	.	.	.	.
8C#X/	.	8e/	.	8g/'	.	.	.	.	.	.	.	.	.	.	.
8AA/	.	8e/	.	8g/'	.	.	.	.	.	.	.	.	.	.	.
8C#/	.	8e/	.	8g/'	.	.	.	.	.	.	.	.	.	.	.
8AA/J	.	8e/J	.	8g/'J	.	.	.	.	.	.	.	.	.	.	.
=44	=44	=44	=44	=44	=44	=44	=44	=44	=44	=44	=44	=44	=44	=44	=44
4D\	.	16d/LL	.	16f#/LL	f	2.ryy	.	.	.	.	.	2.ryy	2.ryy	2.ryy	2.ryy
.	.	16f#/	.	16a/	.	.	.	.	.	.	.	.	.	.	.
.	.	16g/	.	16b\	.	.	.	.	.	.	.	.	.	.	.
.	.	16e/JJ	.	16cc#X\JJ	.	.	.	.	.	.	.	.	.	.	.
4r	.	16f#\LL	.	16dd\LL	.	.	.	.	.	.	.	.	.	.	.
.	.	16cc#X\	.	16ee\	.	.	.	.	.	.	.	.	.	.	.
.	.	16dd\	.	16ff#\	.	.	.	.	.	.	.	.	.	.	.
.	.	16ee\JJ	.	16gg\JJ	.	.	.	.	.	.	.	.	.	.	.
4D\	.	16ff#\LL	.	16aa\LL	.	.	.	.	.	.	.	.	.	.	.
.	.	16gg\	.	16bb\	.	.	.	.	.	.	.	.	.	.	.
.	.	16ee\	.	16ccc#X\	.	.	.	.	.	.	.	.	.	.	.
.	.	16ff#\JJ	.	16ddd\JJ	.	.	.	.	.	.	.	.	.	.	.
=45	=45	=45	=45	=45	=45	=45	=45	=45	=45	=45	=45	=45	=45	=45	=45
!	!	!	!	!LO:LB:g=original	!	!	!	!	!	!	!	!	!	!	!
!	!	!LO:TX:a:t=P:problem:mixed beam	!	!	!	!	!	!	!	!	!	!	!	!	!
8G\L	.	8gg\L	.	(16aa#X\LL	.	2.ryy	.	.	.	.	.	2.ryy	2.ryy	2.ryy	2.ryy
.	.	.	.	16bb\)	.	.	.	.	.	.	.	.	.	.	.
8B\J	.	16b/L	.	(16gg\	.	.	.	.	.	.	.	.	.	.	.
.	.	16g/JJ	.	16ee\JJ)	.	.	.	.	.	.	.	.	.	.	.
!LO:TX:a:t=P:problem:mixed beam	!	!	!	!	!	!	!	!	!	!	!	!	!	!	!
8A\L	.	8.f#/L	.	8.dd\L	.	.	.	.	.	.	.	.	.	.	.
8A\	.	.	.	.	.	.	.	.	.	.	.	.	.	.	.
.	.	16g/Jk	.	16ee\Jk	.	.	.	.	.	.	.	.	.	.	.
8AA/	.	4g/M<	.	4ee\M	.	.	.	.	.	.	.	.	.	.	.
8AA/J	.	.	.	.	.	.	.	.	.	.	.	.	.	.	.
=46	=46	=46	=46	=46	=46	=46	=46	=46	=46	=46	=46	=46	=46	=46	=46
8D\L	.	4f#/	.	4dd\	.	2.ryy	.	.	.	.	.	2.ryy	2.ryy	2.ryy	2.ryy
8AA/J	.	.	.	.	.	.	.	.	.	.	.	.	.	.	.
4DD/	.	4f#/	.	4d/	.	.	.	.	.	.	.	.	.	.	.
4r	.	4r	.	4r	.	.	.	.	.	.	.	.	.	.	.
=47	=47	=47	=47	=47	=47	=47	=47	=47	=47	=47	=47	=47	=47	=47	=47
!	!	!	!	!	!	!	!	!LO:N:vis=00	!	!LO:N:vis=00	!	!	!	!	!
8r	.	16b\LL	.	(16dd\LL	.	2.ryy	.	0.r	.	0.r	.	2.ryy	2.ryy	2.ryy	2.ryy
.	.	16a\J	.	16ccn\J)	.	.	.	.	.	.	.	.	.	.	.
8D\L	.	8a\J	.	8cc\J	.	.	.	.	.	.	.	.	.	.	.
8F#\	.	8a\L	.	8.cc\ML	.	.	.	.	.	.	.	.	.	.	.
8D\	.	8a\J	.	.	.	.	.	.	.	.	.	.	.	.	.
.	.	.	.	32b\LL	.	.	.	.	.	.	.	.	.	.	.
.	.	.	.	32cc\JJJ	.	.	.	.	.	.	.	.	.	.	.
8F#\	.	16cc\LL	.	(16aa\LL	.	.	.	.	.	.	.	.	.	.	.
.	.	16a\J	.	16cc\J)	.	.	.	.	.	.	.	.	.	.	.
8D\J	.	8a\J	.	8cc\J	.	.	.	.	.	.	.	.	.	.	.
=48	=48	=48	=48	=48	=48	=48	=48	=48	=48	=48	=48	=48	=48	=48	=48
8r	.	16a\LL	.	16cc\LL	.	2.ryy	.	.	.	.	.	2.ryy	2.ryy	2.ryy	2.ryy
.	.	16g\J	.	16b\J	.	.	.	.	.	.	.	.	.	.	.
8G\L	.	8g\J	.	8b\J	.	.	.	.	.	.	.	.	.	.	.
8B\	.	8g\L	.	8b\L	.	.	.	.	.	.	.	.	.	.	.
8G\	.	8g\J	.	8b\J	.	.	.	.	.	.	.	.	.	.	.
8B\	.	16g\LL	.	16b\LL	.	.	.	.	.	.	.	.	.	.	.
.	.	16b\J	.	16dd\J	.	.	.	.	.	.	.	.	.	.	.
8G\J	.	8b\J	.	8gg\J	.	.	.	.	.	.	.	.	.	.	.
=49	=49	=49	=49	=49	=49	=49	=49	=49	=49	=49	=49	=49	=49	=49	=49
!LO:LB:g=original	!	!	!	!	!	!	!	!	!	!	!	!	!	!	!
8r	.	16b\LL	.	(16dd\LL	.	2.ryy	.	.	.	.	.	2.ryy	2.ryy	2.ryy	2.ryy
.	.	16a\J	.	16ccn\J)	.	.	.	.	.	.	.	.	.	.	.
8D\L	.	8a\J	.	8cc\J	.	.	.	.	.	.	.	.	.	.	.
8F#\	.	8a\L	.	8.cc\ML	.	.	.	.	.	.	.	.	.	.	.
8D\	.	8a\J	.	.	.	.	.	.	.	.	.	.	.	.	.
.	.	.	.	32b\LL	.	.	.	.	.	.	.	.	.	.	.
.	.	.	.	32cc\JJJ	.	.	.	.	.	.	.	.	.	.	.
8F#\	.	16cc\LL	.	(16aa\LL	.	.	.	.	.	.	.	.	.	.	.
.	.	16a\J	.	16cc\J)	.	.	.	.	.	.	.	.	.	.	.
8D\J	.	8a\J	.	8cc\J	.	.	.	.	.	.	.	.	.	.	.
=50	=50	=50	=50	=50	=50	=50	=50	=50	=50	=50	=50	=50	=50	=50	=50
8r	.	16a\LL	.	(16cc\LL	.	2.ryy	.	.	.	.	.	2.ryy	2.ryy	2.ryy	2.ryy
.	.	16g\J	.	16b\J)	.	.	.	.	.	.	.	.	.	.	.
8G\L	.	8g\J	.	8b\J	.	.	.	.	.	.	.	.	.	.	.
8B\	.	8g\L	.	8b\L	.	.	.	.	.	.	.	.	.	.	.
8G\	.	8g\J	.	8b\J	.	.	.	.	.	.	.	.	.	.	.
8B\	.	16g\LL	.	(16b\LL	.	.	.	.	.	.	.	.	.	.	.
.	.	16b\J	.	16dd\J)	.	.	.	.	.	.	.	.	.	.	.
8G\J	.	8b\J	.	8gg\J	.	.	.	.	.	.	.	.	.	.	.
=51	=51	=51	=51	=51	=51	=51	=51	=51	=51	=51	=51	=51	=51	=51	=51
!	!	!LO:PB:g=original	!	!	!	!	!	!	!	!	!	!	!	!	!
!	!	!	!	!	!	!	!	!LO:N:vis=00	!	!LO:N:vis=00	!	!	!	!	!
4C/	.	8cc\L	.	16dd#X\LL	.	2.ryy	.	0.r	.	0.r	.	2.ryy	2.ryy	2.ryy	2.ryy
.	.	.	.	16ee\	.	.	.	.	.	.	.	.	.	.	.
.	.	8a\J	.	16cc\	.	.	.	.	.	.	.	.	.	.	.
.	.	.	.	16a\JJ	.	.	.	.	.	.	.	.	.	.	.
4D/	.	8g/L	.	8.g\L	.	.	.	.	.	.	.	.	.	.	.
.	.	8f#/J	.	.	.	.	.	.	.	.	.	.	.	.	.
.	.	.	.	16a/Jk	.	.	.	.	.	.	.	.	.	.	.
4DD/	.	8f#/L	.	4a/M<	.	.	.	.	.	.	.	.	.	.	.
.	.	8c/J	.	.	.	.	.	.	.	.	.	.	.	.	.
=52	=52	=52	=52	=52	=52	=52	=52	=52	=52	=52	=52	=52	=52	=52	=52
8GG/	.	8B/L	.	8g/L	.	2.ryy	.	.	.	.	.	2.ryy	2.ryy	2.ryy	2.ryy
8r	.	8c/	.	8e/'	.	.	.	.	.	.	.	.	.	.	.
4r	.	8c/	.	8e/'	.	.	.	.	.	.	.	.	.	.	.
.	.	8c/J	.	8e/'J	.	.	.	.	.	.	.	.	.	.	.
.	.	.	.	8qqg/	.	.	.	.	.	.	.	.	.	.	.
8C/L	.	8.A/L	.	8f#/L	.	.	.	.	.	.	.	.	.	.	.
8D\J	.	.	.	16e/L	.	.	.	.	.	.	.	.	.	.	.
.	.	32G/LL	.	16f#/JJ	.	.	.	.	.	.	.	.	.	.	.
.	.	32A/JJJ	.	.	.	.	.	.	.	.	.	.	.	.	.
=53	=53	=53	=53	=53	=53	=53	=53	=53	=53	=53	=53	=53	=53	=53	=53
!	!	!	!	!LO:LB:g=original	!	!	!	!	!	!	!	!	!	!	!
8GG/	.	8B/L	.	8g/L	.	2.ryy	.	.	.	.	.	2.ryy	2.ryy	2.ryy	2.ryy
8r	.	8c/	.	8e/	.	.	.	.	.	.	.	.	.	.	.
4r	.	8c/	.	8e/	.	.	.	.	.	.	.	.	.	.	.
.	.	8c/J	.	8e/J	.	.	.	.	.	.	.	.	.	.	.
.	.	.	.	8qqg/	.	.	.	.	.	.	.	.	.	.	.
8C/L	.	8.A/L	.	8.f#/m<L	.	.	.	.	.	.	.	.	.	.	.
8D\J	.	.	.	.	.	.	.	.	.	.	.	.	.	.	.
.	.	32G/LL	.	32e/LL	.	.	.	.	.	.	.	.	.	.	.
.	.	32A/JJJ	.	32f#/JJJ	.	.	.	.	.	.	.	.	.	.	.
=54	=54	=54	=54	=54	=54	=54	=54	=54	=54	=54	=54	=54	=54	=54	=54
4G\	.	8B/L	.	8g/L	.	2.ryy	.	.	.	.	.	2.ryy	2.ryy	2.ryy	2.ryy
.	.	8c/	.	8e/	.	.	.	.	.	.	.	.	.	.	.
4GG/	.	8c/	.	8e/	.	.	.	.	.	.	.	.	.	.	.
.	.	8B/	.	8d/	.	.	.	.	.	.	.	.	.	.	.
4D/	.	8B/	.	8d/	.	.	.	.	.	.	.	.	.	.	.
.	.	8A/J	.	8c/J	.	.	.	.	.	.	.	.	.	.	.
=55	=55	=55	=55	=55	=55	=55	=55	=55	=55	=55	=55	=55	=55	=55	=55
.	.	.	.	8qqd/	.	.	.	.	.	.	.	.	.	.	.
8G\L	.	8A/L	.	8c/L	.	2.ryy	.	2.ryy	.	2.ryy	.	2.ryy	2.ryy	2.ryy	2.ryy
8D\J	.	8G/J	.	8B/J	.	.	.	.	.	.	.	.	.	.	.
4GG/	.	4G/	.	4B/	.	.	.	.	.	.	.	.	.	.	.
4r	.	4r	.	4r	.	.	.	.	.	.	.	.	.	.	.
=56	=56	=56	=56	=56	=56	=56	=56	=56	=56	=56	=56	=56	=56	=56	=56
*	*	*	*	*	*	*	*	*2\right	*	*2\right	*	*	*	*	*
!	!	!	!	!	!LO:DY:t=p&colon;	!	!	!	!	!	!	!	!	!	!
8r	p	8r	p	8r	p	2.ryy	.	2b\	Be-	2.dd\	be-	2.ryy	2.ryy	2.ryy	2.ryy
8G\L	.	8b\L	.	8dd\L	.	.	.	.	.	.	.	.	.	.	.
8B\	.	8dd\	.	8gg\	.	.	.	.	.	.	.	.	.	.	.
8G\	.	8b\	.	8dd\	.	.	.	.	.	.	.	.	.	.	.
8B\	.	8dd\	.	8gg\	.	.	.	4b\	.	.	.	.	.	.	.
8G\J	.	8b\J	.	8dd\J	.	.	.	.	.	.	.	.	.	.	.
=57	=57	=57	=57	=57	=57	=57	=57	=57	=57	=57	=57	=57	=57	=57	=57
.	.	.	.	.	.	.	.	8qqb/	.	8qqdd/	.	.	.	.	.
8r	.	8r	.	8r	.	2.ryy	.	2a\	.	2cc\	.	2.ryy	2.ryy	2.ryy	2.ryy
8D\L	.	8a\L	.	8cc\L	.	.	.	.	.	.	.	.	.	.	.
8F#\	.	8cc\	.	8aa\	.	.	.	.	.	.	.	.	.	.	.
8D\	.	8a\	.	8cc\	.	.	.	.	.	.	.	.	.	.	.
8F#\	.	8cc\	.	8aa\	.	.	.	4a\	-ne-	4cc\	-ne-	.	.	.	.
8D\J	.	8a\J	.	8cc\J	.	.	.	.	.	.	.	.	.	.	.
=58	=58	=58	=58	=58	=58	=58	=58	=58	=58	=58	=58	=58	=58	=58	=58
.	.	.	.	8qqdd/	.	.	.	8qqb/	.	8qqdd/	.	.	.	.	.
4D\	.	4a/	.	4cc\	.	2.ryy	.	4a\	-di-	4cc\	-di-	2.ryy	2.ryy	2.ryy	2.ryy
8G\L	.	8g/L	.	8b\L	.	.	.	4g\	-ctuſ	4b\	-ctuſ	.	.	.	.
8D\	.	8b\	.	8gg\	.	.	.	.	.	.	.	.	.	.	.
8BB\	.	8b\	.	8gg\	.	.	.	4r	.	4r	.	.	.	.	.
8GG\J	.	8b\J	.	8gg\J	.	.	.	.	.	.	.	.	.	.	.
=59	=59	=59	=59	=59	=59	=59	=59	=59	=59	=59	=59	=59	=59	=59	=59
4C/	.	8cc\L	.	8ee\L	.	2.ryy	.	8cc\L	be-	8ee\L	be-	2.ryy	2.ryy	2.ryy	2.ryy
.	.	16dd\L	.	16ff#\L	.	.	.	8ee\J	.	16ff#\L	.	.	.	.	.
.	.	16ee\JJ	.	16gg\JJ	.	.	.	.	.	16gg\JJ	.	.	.	.	.
4G\	.	8b\L	.	8dd\L	.	.	.	4b\	-ne-	4dd\	-ne-	.	.	.	.
.	.	8b\	.	8gg\	.	.	.	.	.	.	.	.	.	.	.
4GG/	.	8b\	.	8gg\	.	.	.	4r	.	4r	.	.	.	.	.
.	.	8b\J	.	8gg\J	.	.	.	.	.	.	.	.	.	.	.
=60	=60	=60	=60	=60	=60	=60	=60	=60	=60	=60	=60	=60	=60	=60	=60
.	.	8qqb/	.	8qqdd/	.	.	.	.	.	8qqdd/	.	.	.	.	.
8D\L	.	4a/	.	4cc\	.	2.ryy	.	4a\	-di-	4cc\	-di-	2.ryy	2.ryy	2.ryy	2.ryy
8F#\J	.	.	.	.	.	.	.	.	.	.	.	.	.	.	.
8G\L	.	8g/L	.	8b\L	.	.	.	4g\	-ctuſ	4b\	-ctuſ	.	.	.	.
8G\	.	8b\	.	8gg\	.	.	.	.	.	.	.	.	.	.	.
8G\	.	8b\	.	8b\	.	.	.	8b\L	qui	8gg\L	qui	.	.	.	.
8C#X\J	.	8g/J	.	8gg\J	.	.	.	8g\J	.	8b\J	.	.	.	.	.
=61	=61	=61	=61	=61	=61	=61	=61	=61	=61	=61	=61	=61	=61	=61	=61
!	!	!LO:LB:g=original	!	!	!	!	!	!	!	!	!	!	!	!	!
.	.	.	.	.	.	.	.	.	.	8qqcc/	.	.	.	.	.
(4D\	.	4g/	.	4b\	.	2.ryy	.	8g\L	ve-	4b\	ve-	2.ryy	2.ryy	2.ryy	2.ryy
.	.	.	.	.	.	.	.	8f#/J	.	.	.	.	.	.	.
!	!	!	!	!	!LO:DY:t=fo	!	!	!	!	!	!	!	!	!	!
4DD/)	.	8f#/L	.	8a\`L	f	.	.	4f#/	-nit	4a\	-nit	.	.	.	.
.	.	8f#/	.	8dd\`	.	.	.	.	.	.	.	.	.	.	.
4r	.	8f#/	.	8a\`	.	.	.	4r	.	4r	.	.	.	.	.
.	.	8d/J	.	8f#\`J	.	.	.	.	.	.	.	.	.	.	.
=62	=62	=62	=62	=62	=62	=62	=62	=62	=62	=62	=62	=62	=62	=62	=62
!LO:LB:g=original	!	!	!	!	!	!	!	!	!	!	!	!	!	!	!
8r	.	8r	.	8r	p	2.ryy	.	2.e/	be-	2.a\	be-	2.ryy	2.ryy	2.ryy	2.ryy
8D\L	.	8f#/L	.	8a/L	.	.	.	.	.	.	.	.	.	.	.
8D\	.	8f#/	.	8a/	.	.	.	.	.	.	.	.	.	.	.
8D\	.	8f#/	.	8a/	.	.	.	.	.	.	.	.	.	.	.
8D\	.	8f#/	.	8a/	.	.	.	.	.	.	.	.	.	.	.
8D\J	.	8f#/J	.	8a/J	.	.	.	.	.	.	.	.	.	.	.
=63	=63	=63	=63	=63	=63	=63	=63	=63	=63	=63	=63	=63	=63	=63	=63
8r	.	8r	.	8r	.	2.ryy	.	2.g/	-ne-	2.b\	-ne-	2.ryy	2.ryy	2.ryy	2.ryy
8G\L	.	8g/L	.	8b\L	.	.	.	.	.	.	.	.	.	.	.
8G\	.	8g/	.	8b\	.	.	.	.	.	.	.	.	.	.	.
8G\	.	8g/	.	8b\	.	.	.	.	.	.	.	.	.	.	.
8G\	.	8g/	.	8b\	.	.	.	.	.	.	.	.	.	.	.
8G\J	.	8g/J	.	8b\J	.	.	.	.	.	.	.	.	.	.	.
=64	=64	=64	=64	=64	=64	=64	=64	=64	=64	=64	=64	=64	=64	=64	=64
!	!	!	!	!LO:LB:g=original	!	!	!	!	!	!	!	!	!	!	!
8r	.	8r	.	8r	.	2.ryy	.	2.e/	-dic-	2.cc#X\	-di-	2.ryy	2.ryy	2.ryy	2.ryy
!LO:TX:a:t=P:problem:mixed beam	!	!	!	!	!	!	!	!	!	!	!	!	!	!	!
8A\L	.	8e/L	.	8cc#X\L	.	.	.	.	.	.	.	.	.	.	.
8A\	.	8e/	.	8cc#\	.	.	.	.	.	.	.	.	.	.	.
8A\	.	8e/	.	8cc#\	.	.	.	.	.	.	.	.	.	.	.
8A\	.	8e/	.	8cc#\	.	.	.	.	.	.	.	.	.	.	.
8AA/J	.	8e/J	.	8cc#\J	.	.	.	.	.	.	.	.	.	.	.
=65	=65	=65	=65	=65	=65	=65	=65	=65	=65	=65	=65	=65	=65	=65	=65
!	!	!	!	!	!	!	!	!LO:LB:g=original	!	!	!	!	!	!	!
4D\	.	8f#/L	.	8dd\L	.	2.ryy	.	4.f#/	-tuſ	4.dd\	-ctuſ	2.ryy	2.ryy	2.ryy	2.ryy
.	.	8f#/	.	8dd\	.	.	.	.	.	.	.	.	.	.	.
4D\	.	8f#/	.	8dd\	.	.	.	.	.	.	.	.	.	.	.
.	.	8f#/J	.	8dd\J	.	.	.	8dd\L	qui	8ff#\L	qui	.	.	.	.
8F#\L	.	16f#\LL	.	16dd\LL	.	.	.	8ff#\	.	8aa\	.	.	.	.	.
.	.	16dd\	.	16ff#\J	.	.	.	.	.	.	.	.	.	.	.
8D\J	.	16ff#\	.	8aa\J	.	.	.	8dd\J	.	8ff#\J	.	.	.	.	.
.	.	16dd\JJ	.	.	.	.	.	.	.	.	.	.	.	.	.
=66	=66	=66	=66	=66	=66	=66	=66	=66	=66	=66	=66	=66	=66	=66	=66
.	.	.	.	8qqgg/	.	.	.	8qqee/	.	.	.	.	.	.	.
4A\	.	8dd\L	.	8ff#\L	.	2.ryy	.	4dd\	ve-	4ff#\	ve-	2.ryy	2.ryy	2.ryy	2.ryy
.	.	8cc#X\J	.	8ee\J	.	.	.	.	.	.	.	.	.	.	.
8E\L	.	4cc#\	.	4ee\	.	.	.	4cc#X\	-nit	4ee\	-nit	.	.	.	.
8C#X\J	.	.	.	.	.	.	.	.	.	.	.	.	.	.	.
4AA/	.	4r	.	4r	.	.	.	4r	.	4r	.	.	.	.	.
=67	=67	=67	=67	=67	=67	=67	=67	=67	=67	=67	=67	=67	=67	=67	=67
!	!	!	!	!	!	!	!	!	!	!LO:LB:g=original	!	!	!	!	!
8r	.	8r	.	8r	.	2.ryy	.	2.ee\	in	2.gg\	in	2.ryy	2.ryy	2.ryy	2.ryy
8AA/L	.	8ee\L	.	8gg\L	.	.	.	.	.	.	.	.	.	.	.
!LO:SIC:s=8C#:v	!	!	!	!	!	!	!	!	!	!	!	!	!	!	!
8C/	.	8cc#X\	.	8ee\	.	.	.	.	.	.	.	.	.	.	.
8AA/	.	8ee\	.	8gg\	.	.	.	.	.	.	.	.	.	.	.
!LO:SIC:s=8C#:v	!	!	!	!	!	!	!	!	!	!	!	!	!	!	!
8C/	.	8cc#\	.	8ee\	.	.	.	.	.	.	.	.	.	.	.
8AA/J	.	8ee\J	.	8gg\J	.	.	.	.	.	.	.	.	.	.	.
=68	=68	=68	=68	=68	=68	=68	=68	=68	=68	=68	=68	=68	=68	=68	=68
8r	.	8r	.	8r	.	2.ryy	.	2.dd\	no	2.ff#\	no	2.ryy	2.ryy	2.ryy	2.ryy
8D\L	.	8dd\L	.	8ff#\L	.	.	.	.	.	.	.	.	.	.	.
8F#\	.	8ff#\	.	8aa\	.	.	.	.	.	.	.	.	.	.	.
8D\	.	8dd\	.	8ff#\	.	.	.	.	.	.	.	.	.	.	.
8F#\	.	8ff#\	.	8aa\	.	.	.	.	.	.	.	.	.	.	.
8D\J	.	8dd\J	.	8ff#\J	.	.	.	.	.	.	.	.	.	.	.
=69	=69	=69	=69	=69	=69	=69	=69	=69	=69	=69	=69	=69	=69	=69	=69
.	.	.	.	.	.	.	.	8qqa/	.	8qqdd/	.	.	.	.	.
8r	.	8r	.	8r	.	2.ryy	.	2g/	.	2cc#X\	.	2.ryy	2.ryy	2.ryy	2.ryy
8AA/L	.	8ee\L	.	8gg\L	.	.	.	.	.	.	.	.	.	.	.
!LO:SIC:s=8C#:v	!	!	!	!	!	!	!	!	!	!	!	!	!	!	!
8C/	.	8cc#X\	.	8ee\	.	.	.	.	.	.	.	.	.	.	.
8AA/	.	8ee\	.	8gg\	.	.	.	.	.	.	.	.	.	.	.
!LO:SIC:s=8C#:v	!	!	!	!	!	!	!	!	!	!	!	!	!	!	!
8C/	.	8cc#\	.	8ee\	.	.	.	4g/	-mi-	4cc#\	-mi-	.	.	.	.
8AA/J	.	8ee\J	.	8gg\J	.	.	.	.	.	.	.	.	.	.	.
=70	=70	=70	=70	=70	=70	=70	=70	=70	=70	=70	=70	=70	=70	=70	=70
4D/	.	8dd\L	.	8ff#\L	.	2.ryy	.	2.f#/	-ne	2.dd\	-ne	2.ryy	2.ryy	2.ryy	2.ryy
.	.	8ff#\	.	8aa\	.	.	.	.	.	.	.	.	.	.	.
4AA/	.	8gg\	.	8bb\	.	.	.	.	.	.	.	.	.	.	.
.	.	8ee\J	.	8ccc#X\J	.	.	.	.	.	.	.	.	.	.	.
4DD/	.	4ff#\	.	8ddd\L	.	.	.	.	.	.	.	.	.	.	.
.	.	.	.	8dd\J	.	.	.	.	.	.	.	.	.	.	.
=71	=71	=71	=71	=71	=71	=71	=71	=71	=71	=71	=71	=71	=71	=71	=71
!	!	!LO:LB:g=original	!	!	!	!	!	!	!	!	!	!	!	!	!
4AA/	.	8r	.	8r	.	2.ryy	.	16cc#X\LL	Do	16ee\LL	Do	2.ryy	2.ryy	2.ryy	2.ryy
.	.	.	.	.	.	.	.	16b\	.	16dd\	.	.	.	.	.
.	.	8ee\L	.	8gg\L	.	.	.	16cc#\	.	16ee\	.	.	.	.	.
.	.	.	.	.	.	.	.	16dd\JJ	.	16ff#\JJ	.	.	.	.	.
8r	.	8ee\	.	8gg\	.	.	.	4ee\	.	4gg\	.	.	.	.	.
8AA/L	.	8ee\	.	8gg\	.	.	.	.	.	.	.	.	.	.	.
8C#X/	.	8ee\	.	8gg\	.	.	.	8r	.	8r	.	.	.	.	.
8AA/J	.	8ee\J	.	8gg\J	.	.	.	8ee\	.	8gg\	.	.	.	.	.
=72	=72	=72	=72	=72	=72	=72	=72	=72	=72	=72	=72	=72	=72	=72	=72
4D\	.	8r	.	8r	.	2.ryy	.	16dd\LL	.	16ff#\LL	.	2.ryy	2.ryy	2.ryy	2.ryy
.	.	.	.	.	.	.	.	16cc#X\	.	16ee\	.	.	.	.	.
.	.	8dd\L	.	8ff#\L	.	.	.	16dd\	.	16ff#\	.	.	.	.	.
.	.	.	.	.	.	.	.	16ee\JJ	.	16gg\JJ	.	.	.	.	.
8r	.	8dd\	.	8ff#\	.	.	.	4ff#\	.	4aa\	.	.	.	.	.
8D\L	.	8dd\	.	8ff#\	.	.	.	.	.	.	.	.	.	.	.
8F#\	.	8dd\	.	8ff#\	.	.	.	8r	.	8r	.	.	.	.	.
8D\J	.	8ff#\J	.	8aa\J	.	.	.	8ff#\	.	8aa\	.	.	.	.	.
=73	=73	=73	=73	=73	=73	=73	=73	=73	=73	=73	=73	=73	=73	=73	=73
4D\	.	4ff#\	.	4aa\	.	2.ryy	.	4ff#\	.	4aa\	.	2.ryy	2.ryy	2.ryy	2.ryy
8A\L	.	8gg\L	.	8bb\L	.	.	.	4ee\	-mi-	4gg\	.	.	.	.	.
8c#X\J	.	8ee\J	.	8ccc#X\J	.	.	.	.	.	.	.	.	.	.	.
4d\	.	4ff#\	.	4ddd\	.	.	.	4dd\	-ni	4ff#\	.	.	.	.	.
=74	=74	=74	=74	=74	=74	=74	=74	=74	=74	=74	=74	=74	=74	=74	=74
4d\	.	4ff#\	.	4aa\	.	2.ryy	.	4a/	Do	4ff#\	.	2.ryy	2.ryy	2.ryy	2.ryy
!LO:TX:a:t=P:problem:mixed beam	!	!	!	!	!	!	!	!	!	!	!	!	!	!	!
8A\L	.	4ee\	.	4gg\	.	.	.	4g/	-mi-	4ee\	-mi-	.	.	.	.
8AA/J	.	.	.	.	.	.	.	.	.	.	.	.	.	.	.
4D/	.	4dd\	.	4ff#\	.	.	.	4f#/	-ni	4dd\	-ni	.	.	.	.
=75	=75	=75	=75	=75	=75	=75	=75	=75	=75	=75	=75	=75	=75	=75	=75
!LO:LB:g=original	!	!	!	!LO:LB:g=original	!	!	!	!LO:LB:g=original	!	!	!	!	!	!	!
4G\	.	8ee\L	.	8gg\L	.	2.ryy	.	8b\L	Do	8ee\L	Do	2.ryy	2.ryy	2.ryy	2.ryy
.	.	8gg\	.	8bb\	.	.	.	8g\J	.	16gg\L	.	.	.	.	.
.	.	.	.	.	.	.	.	.	.	16ee\JJ	.	.	.	.	.
4A\	.	8ff#\	.	8aa\	.	.	.	4f#/	.	4dd\	.	.	.	.	.
.	.	8ee\	.	8gg\	.	.	.	.	.	.	.	.	.	.	.
4AA/	.	8dd\	.	8ff#\	.	.	.	8e/	mi-	8cc#X\L	.	.	.	.	.
.	.	8cc#X\J	.	8ee\J	.	.	.	8e/	-ne	8cc#\J	-mi-	.	.	.	.
=76	=76	=76	=76	=76	=76	=76	=76	=76	=76	=76	=76	=76	=76	=76	=76
!	!	!LO:TX:a:t=P:problem:mixed beam	!	!	!	!	!	!	!	!	!	!	!	!	!
4D/	.	8dd\L	.	8dd\L	.	2.ryy	.	2.f#/	Do	2.dd\	-ni Do	2.ryy	2.ryy	2.ryy	2.ryy
.	.	8f#/	.	8a\	.	.	.	.	.	.	.	.	.	.	.
4r	.	8f#/	.	8a\	.	.	.	.	.	.	.	.	.	.	.
.	.	8g/	.	8b\	.	.	.	.	.	.	.	.	.	.	.
4D/	.	8g/	.	8b\	.	.	.	.	.	.	.	.	.	.	.
.	.	8f#/J	.	8a\J	.	.	.	.	.	.	.	.	.	.	.
=77	=77	=77	=77	=77	=77	=77	=77	=77	=77	=77	=77	=77	=77	=77	=77
!	!	!	!	!	!	!	!	!	!	!LO:LB:g=original	!	!	!	!	!
!	!	!	!	!LO:TX:a:t=1	!	!	!	!	!	!	!	!	!	!	!
4D/	.	8f#/L	.	8dd\	.	2.ryy	.	2.f#/	.	2.dd\	.	2.ryy	2.ryy	2.ryy	2.ryy
.	.	8f#/	.	8a/L	.	.	.	.	.	.	.	.	.	.	.
4r	.	8f#/	.	8a/	.	.	.	.	.	.	.	.	.	.	.
.	.	8g/	.	8b\	.	.	.	.	.	.	.	.	.	.	.
4D/	.	8g/	.	8b\	.	.	.	.	.	.	.	.	.	.	.
.	.	8f#/J	.	8a/J	.	.	.	.	.	.	.	.	.	.	.
=78	=78	=78	=78	=78	=78	=78	=78	=78	=78	=78	=78	=78	=78	=78	=78
4D\	.	8a\L	.	8a\L	.	2.ryy	.	8f#\L	.	8dd\L	.	2.ryy	2.ryy	2.ryy	2.ryy
.	.	8a\	.	8ff#\	.	.	.	16dd\L	.	16ff#\L	.	.	.	.	.
.	.	.	.	.	.	.	.	16ff#\JJ	.	16aa\JJ	.	.	.	.	.
4A\	.	8ff#\	.	8aa\	.	.	.	8ff#\	.	8aa\	.	.	.	.	.
.	.	8ee\J	.	8gg\J	.	.	.	8ee\	-mi-	8gg\	-mi-	.	.	.	.
.	.	8qqee/	.	.	.	.	.	.	.	.	.	.	.	.	.
4d\	.	4dd\	.	4ff#\	.	.	.	4dd\	-ne	4ff#\	-ni	.	.	.	.
=79	=79	=79	=79	=79	=79	=79	=79	=79	=79	=79	=79	=79	=79	=79	=79
4d\	.	8r	.	4.ff#\	.	2.ryy	.	4.ff#\	Do	4.aa\	Do	2.ryy	2.ryy	2.ryy	2.ryy
.	.	4a/	.	.	.	.	.	.	.	.	.	.	.	.	.
4A\	.	.	.	.	.	.	.	.	.	.	.	.	.	.	.
.	.	8g/	.	8ee\	.	.	.	8ee\	-mi-	8gg\	-mi-	.	.	.	.
4D\	.	4f#/	.	4dd\	.	.	.	4dd\	-ni	4ff#\	-ni	.	.	.	.
=80	=80	=80	=80	=80	=80	=80	=80	=80	=80	=80	=80	=80	=80	=80	=80
4G\	.	8g/L	.	8bb\L	.	2.ryy	.	4b\	Do	8gg\L	Do	2.ryy	2.ryy	2.ryy	2.ryy
.	.	8b\	.	16gg\L	.	.	.	.	.	16ff#\L	.	.	.	.	.
.	.	.	.	16ee\JJ	.	.	.	.	.	16ee\JJ	.	.	.	.	.
4A\	.	8a/	.	4dd\	.	.	.	4a\	.	4dd\	.	.	.	.	.
.	.	8a/	.	.	.	.	.	.	.	.	.	.	.	.	.
4AA/	.	8a/	.	4cc#X\	.	.	.	4g\	-mi-	4cc#X\	-mi-	.	.	.	.
.	.	8g/J	.	.	.	.	.	.	.	.	.	.	.	.	.
=81	=81	=81	=81	=81	=81	=81	=81	=81	=81	=81	=81	=81	=81	=81	=81
!	!	!LO:LB:g=original	!	!	!	!	!	!	!	!	!	!	!	!	!
!	!	!	!LO:DY:rj	!	!LO:DY:t=fo	!	!	!	!	!	!	!	!	!	!
8D\L	f	8f#/	f	8ddd\	f	2.ryy	.	4f#/	-ni	4dd\	-ni	2.ryy	2.ryy	2.ryy	2.ryy
8D\	.	4f#/	.	4dd\	.	.	.	.	.	.	.	.	.	.	.
8F#\	.	.	.	.	.	.	.	4r	.	4r	.	.	.	.	.
8D\	.	4f#/	.	4dd\	.	.	.	.	.	.	.	.	.	.	.
8F#\	.	.	.	.	.	.	.	4r	.	4r	.	.	.	.	.
8D\J	.	8f#/	.	8dd\	.	.	.	.	.	.	.	.	.	.	.
=82	=82	=82	=82	=82	=82	=82	=82	=82	=82	=82	=82	=82	=82	=82	=82
!	!	!	!	!	!	!	!	!LO:TX:a:t=14	!	!LO:TX:a:t=12:problem:w rzeczywistości 14	!	!	!	!	!
!	!	!	!	!	!	!	!	!LO:N:vis=00	!	!LO:N:vis=00	!	!	!	!	!
8r	.	8e/L 8c#X/	.	8aa\	.	2.ryy	.	0.r	.	0.r	.	2.ryy	2.ryy	2.ryy	2.ryy
8AA/L	.	8e/ 8c#/	.	4a/	.	.	.	.	.	.	.	.	.	.	.
8C#X/	.	8e/ 8c#/	.	.	.	.	.	.	.	.	.	.	.	.	.
8AA/	.	8e/J 8c#/	.	4a/	.	.	.	.	.	.	.	.	.	.	.
8C#/	.	8e/L	.	.	.	.	.	.	.	.	.	.	.	.	.
8AA/J	.	16e/L	.	8a/	.	.	.	.	.	.	.	.	.	.	.
.	.	16f#/JJ	.	.	.	.	.	.	.	.	.	.	.	.	.
=83	=83	=83	=83	=83	=83	=83	=83	=83	=83	=83	=83	=83	=83	=83	=83
4GG/	.	8g/	.	8b\	.	2.ryy	.	.	.	.	.	2.ryy	2.ryy	2.ryy	2.ryy
.	.	4g/	.	4b\	.	.	.	.	.	.	.	.	.	.	.
4G\	.	.	.	.	.	.	.	.	.	.	.	.	.	.	.
.	.	8g/	.	8b\	.	.	.	.	.	.	.	.	.	.	.
8G\L	.	16b\LL	.	16gg\LL	.	.	.	.	.	.	.	.	.	.	.
.	.	16g/	.	16ee\	.	.	.	.	.	.	.	.	.	.	.
8A\J	.	16f#/	.	16dd\	.	.	.	.	.	.	.	.	.	.	.
.	.	16e/JJ	.	16cc#X\JJ	.	.	.	.	.	.	.	.	.	.	.
=84	=84	=84	=84	=84	=84	=84	=84	=84	=84	=84	=84	=84	=84	=84	=84
8D\L	.	16f#\LL	.	16dd\LL	.	2.ryy	.	.	.	.	.	2.ryy	2.ryy	2.ryy	2.ryy
.	.	16cc#X\	.	16ee\	.	.	.	.	.	.	.	.	.	.	.
8d\	.	16dd\	.	16ff#\	.	.	.	.	.	.	.	.	.	.	.
.	.	16ee\JJ	.	16gg\JJ	.	.	.	.	.	.	.	.	.	.	.
8D\	.	16ff#\LL	.	16aa\LL	.	.	.	.	.	.	.	.	.	.	.
.	.	16gg\	.	16bb\	.	.	.	.	.	.	.	.	.	.	.
8d\	.	16ee\	.	16ccc#X\	.	.	.	.	.	.	.	.	.	.	.
.	.	16ff#\JJ	.	16ddd\JJ	.	.	.	.	.	.	.	.	.	.	.
8D\	.	16ee\LL	.	16ccc#\LL	.	.	.	.	.	.	.	.	.	.	.
.	.	16ff#\	.	16ddd\	.	.	.	.	.	.	.	.	.	.	.
8d\J	.	16ee\	.	16ccc#\	.	.	.	.	.	.	.	.	.	.	.
.	.	16ff#\JJ	.	16ddd\JJ	.	.	.	.	.	.	.	.	.	.	.
=85	=85	=85	=85	=85	=85	=85	=85	=85	=85	=85	=85	=85	=85	=85	=85
!	!	!	!	!LO:LB:g=original	!	!	!	!	!	!	!	!	!	!	!
4G\	.	8b/	.	8b\	.	2.ryy	.	.	.	.	.	2.ryy	2.ryy	2.ryy	2.ryy
.	.	4b/	.	4b\	.	.	.	.	.	.	.	.	.	.	.
4G\	.	.	.	.	.	.	.	.	.	.	.	.	.	.	.
.	.	8b/	.	8b\	.	.	.	.	.	.	.	.	.	.	.
4A\	.	16b\LL	.	16gg\LL	.	.	.	.	.	.	.	.	.	.	.
.	.	16g/	.	16ee\	.	.	.	.	.	.	.	.	.	.	.
.	.	16f#/	.	16dd\	.	.	.	.	.	.	.	.	.	.	.
.	.	16e/JJ	.	16cc#X\JJ	.	.	.	.	.	.	.	.	.	.	.
=86	=86	=86	=86	=86	=86	=86	=86	=86	=86	=86	=86	=86	=86	=86	=86
!	!	!	!	!	!	!	!	!LO:N:vis=00	!	!LO:N:vis=00	!	!	!	!	!
4D/	.	8f#/L	.	8.dd\ML	.	2.ryy	.	0.r	.	0.r	.	2.ryy	2.ryy	2.ryy	2.ryy
.	.	16f#/L	.	.	.	.	.	.	.	.	.	.	.	.	.
.	.	16dd\JJ	.	32ee\LL	.	.	.	.	.	.	.	.	.	.	.
.	.	.	.	32ff#\JJJ	.	.	.	.	.	.	.	.	.	.	.
.	.	8qqdd/	.	8qqff#/	.	.	.	.	.	.	.	.	.	.	.
!LO:TX:a:t=P:problem:mixed beam	!	!	!	!	!	!	!	!	!	!	!	!	!	!	!
8AA/L	.	4cc#X\	.	4ee\	.	.	.	.	.	.	.	.	.	.	.
8A\	.	.	.	.	.	.	.	.	.	.	.	.	.	.	.
8AA/	.	8r	.	8r	.	.	.	.	.	.	.	.	.	.	.
8A\J	.	8cc#\	.	8ee\	.	.	.	.	.	.	.	.	.	.	.
=87	=87	=87	=87	=87	=87	=87	=87	=87	=87	=87	=87	=87	=87	=87	=87
!	!	!LO:SIC:s=8.cc#:v	!	!	!	!	!	!	!	!	!	!	!	!	!
4AA/	.	8.cc\L	.	8.ee\ML	.	2.ryy	.	.	.	.	.	2.ryy	2.ryy	2.ryy	2.ryy
.	.	32dd\LL	.	32ff#\LL	.	.	.	.	.	.	.	.	.	.	.
.	.	32ee\JJJ	.	32gg\JJJ	.	.	.	.	.	.	.	.	.	.	.
!LO:TX:a:t=P:problem:mixed beam	!	!	!	!	!	!	!	!	!	!	!	!	!	!	!
8D/L	.	4.dd\	.	4.ff#\	.	.	.	.	.	.	.	.	.	.	.
8d\	.	.	.	.	.	.	.	.	.	.	.	.	.	.	.
8D/	.	.	.	.	.	.	.	.	.	.	.	.	.	.	.
8d\J	.	8ff#\	.	16aa\LL	.	.	.	.	.	.	.	.	.	.	.
.	.	.	.	16aa#X\JJ	.	.	.	.	.	.	.	.	.	.	.
=88	=88	=88	=88	=88	=88	=88	=88	=88	=88	=88	=88	=88	=88	=88	=88
!LO:LB:g=original	!	!LO:LB:g=original	!	!	!	!	!	!	!	!	!	!	!	!	!
8G\L	.	8gg\L	.	8bb\L	.	2.ryy	.	.	.	.	.	2.ryy	2.ryy	2.ryy	2.ryy
8B\J	.	8b\	.	16gg\L	.	.	.	.	.	.	.	.	.	.	.
.	.	.	.	16ee\JJ	.	.	.	.	.	.	.	.	.	.	.
4A\	.	8a\	.	4dd\	.	.	.	.	.	.	.	.	.	.	.
.	.	8a\	.	.	.	.	.	.	.	.	.	.	.	.	.
4AA/	.	8g\	.	4cc#X\	.	.	.	.	.	.	.	.	.	.	.
.	.	8g\J	.	.	.	.	.	.	.	.	.	.	.	.	.
=89	=89	=89	=89	=89	=89	=89	=89	=89	=89	=89	=89	=89	=89	=89	=89
4D/	.	8f#/L	.	8dd\L	.	2.ryy	.	.	.	.	.	2.ryy	2.ryy	2.ryy	2.ryy
.	.	8g/	.	8b\	.	.	.	.	.	.	.	.	.	.	.
4r	.	8g/	.	8b\	.	.	.	.	.	.	.	.	.	.	.
.	.	8f#/	.	8a\	.	.	.	.	.	.	.	.	.	.	.
4AA/	.	8f#/	.	8a\	.	.	.	.	.	.	.	.	.	.	.
.	.	8e/J	.	8g\J	.	.	.	.	.	.	.	.	.	.	.
=90	=90	=90	=90	=90	=90	=90	=90	=90	=90	=90	=90	=90	=90	=90	=90
.	.	.	.	8qqg/	.	.	.	.	.	.	.	.	.	.	.
!	!	!	!	!	!	!	!	!LO:N:vis=00	!	!LO:N:vis=00	!	!	!	!	!
4D/	.	8d/L	.	16f#\LL	.	2.ryy	.	0.r	.	0.r	.	2.ryy	2.ryy	2.ryy	2.ryy
.	.	.	.	16dd\J	.	.	.	.	.	.	.	.	.	.	.
.	.	8f#/J	.	8a\J	.	.	.	.	.	.	.	.	.	.	.
4r	.	8g/L	.	8b\L	.	.	.	.	.	.	.	.	.	.	.
.	.	8f#/	.	8a/	.	.	.	.	.	.	.	.	.	.	.
4AA/	.	8f#/	.	8a/	.	.	.	.	.	.	.	.	.	.	.
.	.	8e/J	.	8g/J	.	.	.	.	.	.	.	.	.	.	.
=91	=91	=91	=91	=91	=91	=91	=91	=91	=91	=91	=91	=91	=91	=91	=91
4D\	.	8d/L	.	8f#\L	.	2.ryy	.	.	.	.	.	2.ryy	2.ryy	2.ryy	2.ryy
.	.	8f#/J	.	8a\	.	.	.	.	.	.	.	.	.	.	.
4D\	.	8a\L	.	8dd\	.	.	.	.	.	.	.	.	.	.	.
.	.	8dd\J	.	8ff#\J	.	.	.	.	.	.	.	.	.	.	.
4D\	.	4ff#\	.	4aa\	.	.	.	.	.	.	.	.	.	.	.
=92	=92	=92	=92	=92	=92	=92	=92	=92	=92	=92	=92	=92	=92	=92	=92
4G\	.	16ff#\LL	.	16aa#X\LL	.	2.ryy	.	.	.	.	.	2.ryy	2.ryy	2.ryy	2.ryy
.	.	16gg\	.	16bb\	.	.	.	.	.	.	.	.	.	.	.
.	.	16b\	.	16gg\	.	.	.	.	.	.	.	.	.	.	.
.	.	16g\JJ	.	16ee\JJ	.	.	.	.	.	.	.	.	.	.	.
4A\	.	4f#/	.	4dd\	.	.	.	.	.	.	.	.	.	.	.
4AA/	.	4e/	.	4cc#X\	.	.	.	.	.	.	.	.	.	.	.
=93	=93	=93	=93	=93	=93	=93	=93	=93	=93	=93	=93	=93	=93	=93	=93
4D\	.	8f#/L	.	8dd\L	.	2.ryy	.	.	.	.	.	2.ryy	2.ryy	2.ryy	2.ryy
.	.	8g/	.	8b\	.	.	.	.	.	.	.	.	.	.	.
4r	.	8g/	.	8b\	.	.	.	.	.	.	.	.	.	.	.
.	.	8f#/	.	8a\	.	.	.	.	.	.	.	.	.	.	.
4AA/	.	8f#/	.	8a\	.	.	.	.	.	.	.	.	.	.	.
.	.	8e/J	.	8g\J	.	.	.	.	.	.	.	.	.	.	.
=94	=94	=94	=94	=94	=94	=94	=94	=94	=94	=94	=94	=94	=94	=94	=94
!	!	!	!	!	!	!	!	!LO:N:vis=0	!	!	!	!	!	!	!
4D\	.	8d/L	.	8f#\L	.	2.ryy	.	1.r	.	2.ryy	.	2.ryy	2.ryy	2.ryy	2.ryy
.	.	8f#/J	.	8dd\J	.	.	.	.	.	.	.	.	.	.	.
4r	.	8f#/L	.	8dd\L	.	.	.	.	.	.	.	.	.	.	.
.	.	8g/	.	8b\	.	.	.	.	.	.	.	.	.	.	.
4AA/	.	8f#/	.	8a\	.	.	.	.	.	.	.	.	.	.	.
.	.	8e/J	.	8g\J	.	.	.	.	.	.	.	.	.	.	.
=95	=95	=95	=95	=95	=95	=95	=95	=95	=95	=95	=95	=95	=95	=95	=95
.	.	8qqf#/	.	8qqa/	.	.	.	.	.	.	.	.	.	.	.
8AA/L	.	4e/	.	4g/	.	2.ryy	.	.	.	2.ryy	.	2.ryy	2.ryy	2.ryy	2.ryy
8D\J	.	.	.	.	.	.	.	.	.	.	.	.	.	.	.
4DD/	.	4d/	.	4f#/	.	.	.	.	.	.	.	.	.	.	.
4r	.	4r	.	4r	.	.	.	.	.	.	.	.	.	.	.
=96	=96	=96	=96	=96	=96	=96	=96	=96	=96	=96	=96	=96	=96	=96	=96
!	!	!	!	!LO:LB:g=original	!	!	!	!	!	!	!	!	!	!	!
!	!	!	!	!	!LO:DY:rj	!	!	!	!	!	!	!	!	!	!
8r	p	8r	p	8r	p	2.ryy	.	2f#/	be-	2a\	be-	2.ryy	2.ryy	2.ryy	2.ryy
!LO:TX:a:t=P:problem:mixed beam	!	!	!	!	!	!	!	!	!	!	!	!	!	!	!
8D\L	.	8f#/L	.	8a/L	.	.	.	.	.	.	.	.	.	.	.
8DD/	.	8f#/	.	8a/	.	.	.	.	.	.	.	.	.	.	.
8D\	.	8f#/	.	8a/	.	.	.	.	.	.	.	.	.	.	.
8DD/	.	8f#/	.	8a/	.	.	.	4f#/	-ne-	4a\	-ne-	.	.	.	.
8D\J	.	8f#/J	.	8a/J	.	.	.	.	.	.	.	.	.	.	.
=97	=97	=97	=97	=97	=97	=97	=97	=97	=97	=97	=97	=97	=97	=97	=97
8r	.	8r	.	8r	.	2.ryy	.	2g/	-di-	2b\	-di-	2.ryy	2.ryy	2.ryy	2.ryy
!LO:TX:a:t=P:problem:mixed beam	!	!	!	!	!	!	!	!	!	!	!	!	!	!	!
8G\L	.	8g/L	.	8b\L	.	.	.	.	.	.	.	.	.	.	.
8GG/	.	8b\	.	8gg\	.	.	.	.	.	.	.	.	.	.	.
8G\	.	8g/	.	8b\	.	.	.	.	.	.	.	.	.	.	.
8GG/	.	8b\	.	8gg\	.	.	.	4g/	-ctuſ	4b\	-ctuſ	.	.	.	.
8G\J	.	8g/J	.	8b\J	.	.	.	.	.	.	.	.	.	.	.
=98	=98	=98	=98	=98	=98	=98	=98	=98	=98	=98	=98	=98	=98	=98	=98
!	!	!LO:LB:g=original	!	!	!	!	!	!LO:LB:g=original	!	!	!	!	!	!	!
.	.	.	.	.	.	.	.	.	.	8qqdd/	.	.	.	.	.
8r	.	8r	.	8r	.	2.ryy	.	2e/	be-	2cc#X\	be-	2.ryy	2.ryy	2.ryy	2.ryy
!LO:TX:a:t=P:problem:mixed beam	!	!	!	!	!	!	!	!	!	!	!	!	!	!	!
8A\L	.	8e/L	.	8cc#X\L	.	.	.	.	.	.	.	.	.	.	.
8AA/	.	8g/	.	8aa\	.	.	.	.	.	.	.	.	.	.	.
8A\	.	8e/	.	8cc#\	.	.	.	.	.	.	.	.	.	.	.
8AA/	.	8g/	.	8aa\	.	.	.	4e/	-ne-	4cc#\	-ne-	.	.	.	.
8A\J	.	8e/J	.	8cc#\J	.	.	.	.	.	.	.	.	.	.	.
=99	=99	=99	=99	=99	=99	=99	=99	=99	=99	=99	=99	=99	=99	=99	=99
!	!	!	!	!	!	!	!	!	!	!LO:SIC:s=8cc#:v	!	!	!	!	!
4D\	.	8e/L	.	4dd\	.	2.ryy	.	8e/L	-di-	8cc\L	-di-	2.ryy	2.ryy	2.ryy	2.ryy
.	.	8f#/J	.	.	.	.	.	8f#/J	.	8dd\J	.	.	.	.	.
4DD/	.	4f#/	.	8dd\L	.	.	.	4f#/	-ctuſ	4dd\	-ctuſ	.	.	.	.
.	.	.	.	8ff#\	.	.	.	.	.	.	.	.	.	.	.
4r	.	4r	.	8aa\	.	.	.	4r	.	4r	.	.	.	.	.
.	.	.	.	8ddd\J	.	.	.	.	.	.	.	.	.	.	.
=100	=100	=100	=100	=100	=100	=100	=100	=100	=100	=100	=100	=100	=100	=100	=100
!	!	!	!	!	!	!	!	!	!	!LO:LB:g=original	!	!	!	!	!
!	!	!	!	!	!	!	!	!LO:N:vis=0	!	!	!	!	!	!	!
8E\L	.	8r	.	8r	.	2.ryy	.	1.r	.	2dd\	qui	2.ryy	2.ryy	2.ryy	2.ryy
8E\	.	8b\L	.	8dd\L	.	.	.	.	.	.	.	.	.	.	.
8E\	.	8b\	.	8dd\	.	.	.	.	.	.	.	.	.	.	.
8E\	.	8b\	.	8dd\	.	.	.	.	.	.	.	.	.	.	.
8E\	.	8b\	.	8dd\	.	.	.	.	.	16ffn\LL	.	.	.	.	.
.	.	.	.	.	.	.	.	.	.	16dd\	.	.	.	.	.
8E\J	.	8b\J	.	8dd\J	.	.	.	.	.	16b\	.	.	.	.	.
.	.	.	.	.	.	.	.	.	.	16a\JJ	.	.	.	.	.
=101	=101	=101	=101	=101	=101	=101	=101	=101	=101	=101	=101	=101	=101	=101	=101
!LO:LB:g=original	!	!	!	!	!	!	!	!	!	!	!	!	!	!	!
.	.	.	.	.	.	.	.	.	.	8qqa/	.	.	.	.	.
4E\	.	8r	.	8r	.	2.ryy	.	.	.	2g#X\	ve-	2.ryy	2.ryy	2.ryy	2.ryy
.	.	8b\L	.	8dd\L	.	.	.	.	.	.	.	.	.	.	.
4D\	.	8b\	.	8dd\	.	.	.	.	.	.	.	.	.	.	.
.	.	8b\	.	8dd\	.	.	.	.	.	.	.	.	.	.	.
4C\	.	8a\	.	8ccn\	.	.	.	.	.	4a\	-nit	.	.	.	.
.	.	8a\J	.	8cc\J	.	.	.	.	.	.	.	.	.	.	.
=102	=102	=102	=102	=102	=102	=102	=102	=102	=102	=102	=102	=102	=102	=102	=102
!	!	!	!	!	!	!	!	!	!	!LO:N:vis=0	!	!	!	!	!
8r	.	8a/L	.	8cc\L	.	2.ryy	.	2ccn\	qui	1.r	.	2.ryy	2.ryy	2.ryy	2.ryy
8D\L	.	8a/	.	8cc\	.	.	.	.	.	.	.	.	.	.	.
8D\	.	8a/	.	8cc\	.	.	.	.	.	.	.	.	.	.	.
8D\	.	8a/	.	8cc\	.	.	.	.	.	.	.	.	.	.	.
8D\	.	8a/	.	8cc\	.	.	.	16ee\LL	.	.	.	.	.	.	.
.	.	.	.	.	.	.	.	16cc\	.	.	.	.	.	.	.
8D\J	.	8a/J	.	8cc\J	.	.	.	16a\	.	.	.	.	.	.	.
.	.	.	.	.	.	.	.	16g\JJ	.	.	.	.	.	.	.
=103	=103	=103	=103	=103	=103	=103	=103	=103	=103	=103	=103	=103	=103	=103	=103
.	.	.	.	.	.	.	.	8qqg/	.	.	.	.	.	.	.
4D\	.	8r	.	8r	.	2.ryy	.	2f#/	ve-	.	.	2.ryy	2.ryy	2.ryy	2.ryy
.	.	8a/L	.	8cc\L	.	.	.	.	.	.	.	.	.	.	.
4F#\	.	8a/	.	8cc\	.	.	.	.	.	.	.	.	.	.	.
.	.	8a/	.	8cc\	.	.	.	.	.	.	.	.	.	.	.
4G\	.	8g/	.	8b\	.	.	.	4g/	-nit	.	.	.	.	.	.
.	.	8g/J	.	8b\J	.	.	.	.	.	.	.	.	.	.	.
=104	=104	=104	=104	=104	=104	=104	=104	=104	=104	=104	=104	=104	=104	=104	=104
4G\	.	8g/L	.	8b\L	.	2.ryy	.	8g\L	in	8b\L	in	2.ryy	2.ryy	2.ryy	2.ryy
.	.	8b\J	.	8gg\J	.	.	.	8b\J	.	8gg\J	.	.	.	.	.
4BB/	.	4b/	.	4gg\	.	.	.	4b\	no	4gg\	no	.	.	.	.
4GG/	.	8b\L	.	8b\L	.	.	.	8g\	-mi-	8b\	-mi-	.	.	.	.
.	.	8g/J	.	8b\J	.	.	.	8g\	-ne	8b\	-ne	.	.	.	.
=105	=105	=105	=105	=105	=105	=105	=105	=105	=105	=105	=105	=105	=105	=105	=105
.	.	.	.	8qqcc/	.	.	.	.	.	.	.	.	.	.	.
4D/	.	8g/L	.	8b\L	.	2.ryy	.	8g/	Do	8b\	Do	2.ryy	2.ryy	2.ryy	2.ryy
.	.	8f#/J	.	8a/J	.	.	.	8f#/	-mi-	8a\	-mi-	.	.	.	.
8AA/L	.	4f#/	.	4a/	.	.	.	4f#/	-ni	4a\	-ni	.	.	.	.
8D\J	.	.	.	.	.	.	.	.	.	.	.	.	.	.	.
4DD/	.	4r	.	4r	.	.	.	4r	.	4r	.	.	.	.	.
=106	=106	=106	=106	=106	=106	=106	=106	=106	=106	=106	=106	=106	=106	=106	=106
.	.	.	.	.	.	.	.	.	.	8qqgg/	.	.	.	.	.
8r	.	16a/LL	.	(16ccn\LL	.	2.ryy	.	2a\	in	2.ff#X\	in	2.ryy	2.ryy	2.ryy	2.ryy
.	.	16f#/	.	16a\)	.	.	.	.	.	.	.	.	.	.	.
8D\L	.	16a/	.	(16cc\	.	.	.	.	.	.	.	.	.	.	.
.	.	16f#/JJ	.	16a\JJ)	.	.	.	.	.	.	.	.	.	.	.
8F#\	.	16a/LL	.	(16cc\LL	.	.	.	.	.	.	.	.	.	.	.
.	.	16f#/	.	16a\)	.	.	.	.	.	.	.	.	.	.	.
8D\	.	16a/	.	(16cc\	.	.	.	.	.	.	.	.	.	.	.
.	.	16f#/JJ	.	16a\JJ)	.	.	.	.	.	.	.	.	.	.	.
8F#\	.	16a/LL	.	(16cc\LL	.	.	.	4cc\	.	.	.	.	.	.	.
.	.	16f#/	.	16a\)	.	.	.	.	.	.	.	.	.	.	.
8D\J	.	16a/	.	(16cc\	.	.	.	.	.	.	.	.	.	.	.
.	.	16f#/JJ	.	16a\JJ)	.	.	.	.	.	.	.	.	.	.	.
=107	=107	=107	=107	=107	=107	=107	=107	=107	=107	=107	=107	=107	=107	=107	=107
!	!	!LO:LB:g=original	!	!LO:LB:g=original	!	!	!	!	!	!	!	!	!	!	!
8r	.	16g/LL	.	16b\LL	.	2.ryy	.	4.b\	no	4.gg\	no	2.ryy	2.ryy	2.ryy	2.ryy
.	.	16b\	.	16gg\	.	.	.	.	.	.	.	.	.	.	.
8D\L	.	16g/	.	16b\	.	.	.	.	.	.	.	.	.	.	.
.	.	16b\JJ	.	16gg\JJ	.	.	.	.	.	.	.	.	.	.	.
8G\	.	16g/LL	.	16b\LL	.	.	.	.	.	.	.	.	.	.	.
.	.	16b\	.	16gg\	.	.	.	.	.	.	.	.	.	.	.
8D\	.	16g/	.	16b\	.	.	.	8b\	-mi-	8gg\	-mi-	.	.	.	.
.	.	16b\JJ	.	16gg\JJ	.	.	.	.	.	.	.	.	.	.	.
8G\	.	16g/LL	.	16b\LL	.	.	.	4b\	-ne	4gg\	-ne	.	.	.	.
.	.	16b\	.	16gg\	.	.	.	.	.	.	.	.	.	.	.
8D\J	.	16g/	.	16b\	.	.	.	.	.	.	.	.	.	.	.
.	.	16b\JJ	.	16gg\JJ	.	.	.	.	.	.	.	.	.	.	.
=108	=108	=108	=108	=108	=108	=108	=108	=108	=108	=108	=108	=108	=108	=108	=108
!	!	!	!	!	!	!	!	!LO:LB:g=original	!	!	!	!	!	!	!
.	.	.	.	.	.	.	.	.	.	8qqgg/	.	.	.	.	.
8r	.	16f#/LL	.	(16a\LL	.	2.ryy	.	2a\	in	2.ff#\	in	2.ryy	2.ryy	2.ryy	2.ryy
.	.	16a/	.	16cc\)	.	.	.	.	.	.	.	.	.	.	.
8D\L	.	16f#/	.	(16a\	.	.	.	.	.	.	.	.	.	.	.
.	.	16a/JJ	.	16cc\JJ)	.	.	.	.	.	.	.	.	.	.	.
8F#\	.	16f#/LL	.	(16a\LL	.	.	.	.	.	.	.	.	.	.	.
.	.	16a/	.	16cc\)	.	.	.	.	.	.	.	.	.	.	.
8D\	.	16f#/	.	(16a\	.	.	.	.	.	.	.	.	.	.	.
.	.	16a/JJ	.	16cc\JJ)	.	.	.	.	.	.	.	.	.	.	.
8F#\	.	16f#/LL	.	(16a\LL	.	.	.	8a\L	.	.	.	.	.	.	.
.	.	16a/	.	16cc\)	.	.	.	.	.	.	.	.	.	.	.
8D\J	.	16f#/	.	(16a\	.	.	.	8cc\J	.	.	.	.	.	.	.
.	.	16a/JJ	.	16cc\JJ)	.	.	.	.	.	.	.	.	.	.	.
=109	=109	=109	=109	=109	=109	=109	=109	=109	=109	=109	=109	=109	=109	=109	=109
4G\	.	16g/LL	.	16b\LL	.	2.ryy	.	4.b\	no	4.gg\	no	2.ryy	2.ryy	2.ryy	2.ryy
.	.	16b\	.	16gg\	.	.	.	.	.	.	.	.	.	.	.
.	.	16g/	.	16b\	.	.	.	.	.	.	.	.	.	.	.
.	.	16b\JJ	.	16gg\JJ	.	.	.	.	.	.	.	.	.	.	.
4D\	.	16g/LL	.	16b\LL	.	.	.	.	.	.	.	.	.	.	.
.	.	16b\	.	16gg\	.	.	.	.	.	.	.	.	.	.	.
.	.	16g/	.	16b\	.	.	.	8b\	-mi-	8gg\	-mi-	.	.	.	.
.	.	16b\JJ	.	16gg\JJ	.	.	.	.	.	.	.	.	.	.	.
8BB/L	.	16g/LL	.	16b\LL	.	.	.	4b\	-ne	4gg\	-ne	.	.	.	.
.	.	16b\	.	16gg\	.	.	.	.	.	.	.	.	.	.	.
8GG/J	.	16g/	.	16b\	.	.	.	.	.	.	.	.	.	.	.
.	.	16b\JJ	.	16gg\JJ	.	.	.	.	.	.	.	.	.	.	.
=110	=110	=110	=110	=110	=110	=110	=110	=110	=110	=110	=110	=110	=110	=110	=110
4C/	.	8cc\L	.	8ee\L	.	2.ryy	.	8cc\L	in	8ee\L	in	2.ryy	2.ryy	2.ryy	2.ryy
.	.	8b\J	.	8dd\J	.	.	.	8b\J	.	8dd\J	.	.	.	.	.
4G\	.	4b\	.	4dd\	.	.	.	4b\	no	4dd\	no	.	.	.	.
8r	.	8b\L	.	8dd\L	.	.	.	8b\	-mi-	8dd\	-mi-	.	.	.	.
8G\	.	8b\J	.	8dd\J	.	.	.	(8b\	-ne	8dd\	-ne	.	.	.	.
=111	=111	=111	=111	=111	=111	=111	=111	=111	=111	=111	=111	=111	=111	=111	=111
!	!	!	!	!	!	!	!	!	!	!LO:LB:g=original	!	!	!	!	!
4D\	.	8a/L	.	8cc\L	.	2.ryy	.	8a\)	Do	8cc\	Do	2.ryy	2.ryy	2.ryy	2.ryy
.	.	8g/	.	8b\J	.	.	.	8g\	-mi-	8b\	mini	.	.	.	.
4G\	.	8g/	.	8b\L	.	.	.	4g\	-ni	4.b\	.	.	.	.	.
.	.	8g/J	.	8b\	.	.	.	.	.	.	.	.	.	.	.
8r	.	8g/L	.	8b\	.	.	.	4b\	in	.	.	.	.	.	.
8G\	.	8b\J	.	8gg\J	.	.	.	.	.	8gg\	in	.	.	.	.
=112	=112	=112	=112	=112	=112	=112	=112	=112	=112	=112	=112	=112	=112	=112	=112
8C/L	.	16cc\LL	.	8ee\L	.	2.ryy	.	8cc\	no	8ee\	no	2.ryy	2.ryy	2.ryy	2.ryy
.	.	16a/J	.	.	.	.	.	.	.	.	.	.	.	.	.
8C/J	.	8e/J	.	16cc\L	.	.	.	16a\	-mi-	16cc\	-mi-	.	.	.	.
.	.	.	.	16a\JJ	.	.	.	16a\	-ne	16a\	-ne	.	.	.	.
8D\L	.	8d/L	.	4g/	.	.	.	4g/	Do	4g\	Do	.	.	.	.
8D\	.	8d/	.	.	.	.	.	.	.	.	.	.	.	.	.
8D\	.	8c/	.	4f#/m<	.	.	.	8f#/L	-mi-	4f#X\	-mi-	.	.	.	.
8DD/J	.	8c/J	.	.	.	.	.	8a\J	.	.	.	.	.	.	.
=113	=113	=113	=113	=113	=113	=113	=113	=113	=113	=113	=113	=113	=113	=113	=113
!LO:LB:g=original	!	!	!	!	!	!	!	!	!	!	!	!	!	!	!
!	!	!LO:TX:a:t=P:problem:dziwnie zdwojona nuta	!	!	!	!	!	!	!	!	!	!	!	!	!
4GG/	.	8B/L	.	8g/L	.	2.ryy	.	4g\	-ni	4g\	-ni	2.ryy	2.ryy	2.ryy	2.ryy
.	.	32d/LL	.	32d/LL	.	.	.	.	.	.	.	.	.	.	.
.	.	32c/	.	32c/	.	.	.	.	.	.	.	.	.	.	.
.	.	32B/	.	32B/	.	.	.	.	.	.	.	.	.	.	.
.	.	32A/JJJ	.	32A/JJJ	.	.	.	.	.	.	.	.	.	.	.
4G\	.	4B/	.	4G/	.	.	.	4r	.	4r	.	.	.	.	.
4GG/	.	4r	.	4r	.	.	.	4r	.	4ryy	.	.	.	.	.
=114	=114	=114	=114	=114	=114	=114	=114	=114	=114	=114	=114	=114	=114	=114	=114
!	!	!LO:LB:g=original	!	!	!	!	!	!	!	!	!	!	!	!	!
.	.	.	.	.	.	.	.	.	.	8qqgg/	.	.	.	.	.
8r	.	16a/LL	.	16cc\LL	.	2.ryy	.	2a\	in	2.ff#\	in	2.ryy	2.ryy	2.ryy	2.ryy
.	.	16f#/	.	16a\	.	.	.	.	.	.	.	.	.	.	.
8D\L	.	16a/	.	16cc\	.	.	.	.	.	.	.	.	.	.	.
.	.	16f#/JJ	.	16a\JJ	.	.	.	.	.	.	.	.	.	.	.
8F#\	.	16a/LL	.	16cc\LL	.	.	.	.	.	.	.	.	.	.	.
.	.	16f#/	.	16a\	.	.	.	.	.	.	.	.	.	.	.
8D\	.	16a/	.	16cc\	.	.	.	.	.	.	.	.	.	.	.
.	.	16f#/JJ	.	16a\JJ	.	.	.	.	.	.	.	.	.	.	.
8F#\	.	16a/LL	.	16cc\LL	.	.	.	4cc\	.	.	.	.	.	.	.
.	.	16f#/	.	16a\	.	.	.	.	.	.	.	.	.	.	.
8D\J	.	16a/	.	16cc\	.	.	.	.	.	.	.	.	.	.	.
.	.	16f#/JJ	.	16a\JJ	.	.	.	.	.	.	.	.	.	.	.
=115	=115	=115	=115	=115	=115	=115	=115	=115	=115	=115	=115	=115	=115	=115	=115
8r	.	16g/LL	.	16b\LL	.	2.ryy	.	4.b\	no	4.gg\	no	2.ryy	2.ryy	2.ryy	2.ryy
.	.	16b\	.	16gg\	.	.	.	.	.	.	.	.	.	.	.
8GG/L	.	16g/	.	16b\	.	.	.	.	.	.	.	.	.	.	.
.	.	16b\JJ	.	16gg\JJ	.	.	.	.	.	.	.	.	.	.	.
8BB/	.	16g/LL	.	16b\LL	.	.	.	.	.	.	.	.	.	.	.
.	.	16b\	.	16gg\	.	.	.	.	.	.	.	.	.	.	.
8D\J	.	16g/	.	16b\	.	.	.	8b\	-mi-	8gg\	-mi-	.	.	.	.
.	.	16b\JJ	.	16gg\JJ	.	.	.	.	.	.	.	.	.	.	.
!LO:TX:a:t=P:problem:mixed beam	!	!	!	!	!	!	!	!	!	!	!	!	!	!	!
8G\L	.	16g/LL	.	16b\LL	.	.	.	4b\	-ne	4gg\	-ne	.	.	.	.
.	.	16b\	.	16gg\	.	.	.	.	.	.	.	.	.	.	.
8GG/J	.	16g/	.	16b\	.	.	.	.	.	.	.	.	.	.	.
.	.	16b\JJ	.	16gg\JJ	.	.	.	.	.	.	.	.	.	.	.
=116	=116	=116	=116	=116	=116	=116	=116	=116	=116	=116	=116	=116	=116	=116	=116
!LO:LB:g=original	!	!	!	!LO:LB:g=original	!	!	!	!LO:LB:g=original	!	!	!	!	!	!	!
8r	.	16a/LL	.	16cc\LL	.	2.ryy	.	2a\	in	2.ff#\	in	2.ryy	2.ryy	2.ryy	2.ryy
.	.	16f#/	.	16a\	.	.	.	.	.	.	.	.	.	.	.
8D\L	.	16a/	.	16cc\	.	.	.	.	.	.	.	.	.	.	.
.	.	16f#/JJ	.	16a\JJ	.	.	.	.	.	.	.	.	.	.	.
8F#\	.	16a/LL	.	16cc\LL	.	.	.	.	.	.	.	.	.	.	.
.	.	16f#/	.	16a\	.	.	.	.	.	.	.	.	.	.	.
8D\	.	16a/	.	16cc\	.	.	.	.	.	.	.	.	.	.	.
.	.	16f#/JJ	.	16a\JJ	.	.	.	.	.	.	.	.	.	.	.
8F#\	.	16a/LL	.	16cc\LL	.	.	.	8a\L	.	.	.	.	.	.	.
.	.	16f#/	.	16a\	.	.	.	.	.	.	.	.	.	.	.
8D\J	.	16a/	.	16cc\	.	.	.	8cc\J	.	.	.	.	.	.	.
.	.	16f#/JJ	.	16a\JJ	.	.	.	.	.	.	.	.	.	.	.
=117	=117	=117	=117	=117	=117	=117	=117	=117	=117	=117	=117	=117	=117	=117	=117
8r	.	16g/LL	.	16b\LL	.	2.ryy	.	4.b\	no	4.gg\	no	2.ryy	2.ryy	2.ryy	2.ryy
.	.	16b\	.	16gg\	.	.	.	.	.	.	.	.	.	.	.
8GG/L	.	16g/	.	16b\	.	.	.	.	.	.	.	.	.	.	.
.	.	16b\JJ	.	16gg\JJ	.	.	.	.	.	.	.	.	.	.	.
8BB/	.	16g/LL	.	16b\LL	.	.	.	.	.	.	.	.	.	.	.
.	.	16b\	.	16gg\	.	.	.	.	.	.	.	.	.	.	.
8D\J	.	16g/	.	16b\	.	.	.	8b\	-mi-	8gg\	-mi-	.	.	.	.
.	.	16b\JJ	.	16gg\JJ	.	.	.	.	.	.	.	.	.	.	.
!LO:TX:a:t=P:problem:mixed beam	!	!	!	!	!	!	!	!	!	!	!	!	!	!	!
8G\L	.	16g/LL	.	16b\LL	.	.	.	4b\	-ne	4gg\	-ne	.	.	.	.
.	.	16b\	.	16gg\	.	.	.	.	.	.	.	.	.	.	.
8GG/J	.	16g/	.	16b\	.	.	.	.	.	.	.	.	.	.	.
.	.	16b\JJ	.	16gg\JJ	.	.	.	.	.	.	.	.	.	.	.
=118	=118	=118	=118	=118	=118	=118	=118	=118	=118	=118	=118	=118	=118	=118	=118
4c\	.	8cc\L	.	8ee\L	.	2.ryy	.	8cc\L	in	8ee\L	in	2.ryy	2.ryy	2.ryy	2.ryy
.	.	8b\J	.	8dd\J	.	.	.	8b\J	.	8dd\J	.	.	.	.	.
4G\	.	4b\	.	4dd\	.	.	.	4b\	no	4dd\	no	.	.	.	.
8r	.	8b\L	.	8dd\L	.	.	.	8b\	-mi-	8dd\	-mi-	.	.	.	.
8G\	.	8b\J	.	8dd\J	.	.	.	8b\	-ne	8dd\	-ne	.	.	.	.
=119	=119	=119	=119	=119	=119	=119	=119	=119	=119	=119	=119	=119	=119	=119	=119
!	!	!LO:LB:g=original	!	!	!	!	!	!	!	!LO:LB:g=original	!	!	!	!	!
.	.	.	.	8qqdd/	.	.	.	.	.	.	.	.	.	.	.
4D\	.	8a/L	.	8cc\L	.	2.ryy	.	8a\	Do	8cc\	Do	2.ryy	2.ryy	2.ryy	2.ryy
.	.	8g/J	.	8b\J	.	.	.	8g\	-mi-	8b\	-mi-	.	.	.	.
4G\	.	4g/	.	4b\	.	.	.	4g\	-ni	4.b\	-ni	.	.	.	.
4G\	.	4b/	.	4gg\	.	.	.	4b\	in	.	.	.	.	.	.
.	.	.	.	.	.	.	.	.	.	8gg\	in	.	.	.	.
=120	=120	=120	=120	=120	=120	=120	=120	=120	=120	=120	=120	=120	=120	=120	=120
4C/	.	8cc\L	.	8ee\L	.	2.ryy	.	8cc\	no	8ee\	no	2.ryy	2.ryy	2.ryy	2.ryy
.	.	8e/	.	16cc\L	.	.	.	16b\	-mi-	16cc\	-mi-	.	.	.	.
.	.	.	.	16a\JJ	.	.	.	16a\	-ne	16a\	-ne	.	.	.	.
4D/	.	8d/	.	4g/	.	.	.	4g\	Do	4g/	Do	.	.	.	.
.	.	8c/	.	.	.	.	.	.	.	.	.	.	.	.	.
4DD/	.	8B/	.	4f#/	.	.	.	8f#/L	-mi-	4f#X/	-mi-	.	.	.	.
.	.	8A/J	.	.	.	.	.	8a\J	.	.	.	.	.	.	.
=121	=121	=121	=121	=121	=121	=121	=121	=121	=121	=121	=121	=121	=121	=121	=121
!LO:TX:a:t=P:problem:mixed beam	!	!	!LO:DY:rj	!	!LO:DY:rj:t=fo	!	!	!	!	!	!	!	!	!	!
8GG/L	f	8B/L	ff	8g/`L	f	2.ryy	.	8g\	-ni	8g\	-ni	2.ryy	2.ryy	2.ryy	2.ryy
8G\	.	8g/	.	8g/`	.	.	.	8g\	in	8b\	in	.	.	.	.
8E\	.	8e/	.	8e/`	.	.	.	4g\	no	4b\	no	.	.	.	.
8G\	.	8g/	.	8g/`J	.	.	.	.	.	.	.	.	.	.	.
8C#X\	.	8e/	.	8c#X/`L	.	.	.	8g\	-mi-	8b\	-mi-	.	.	.	.
8E\J	.	8e/J	.	8e/`J	.	.	.	8g\	-ne	8b\	-ne	.	.	.	.
=122	=122	=122	=122	=122	=122	=122	=122	=122	=122	=122	=122	=122	=122	=122	=122
!	!	!	!	!	!	!	!	!LO:TX:a:t=P:problem:niezrozumiałe podkreślenie łukiem	!	!	!	!	!	!	!
*2\right	*	*	*	*	*	*	*	*	*	*	*	*	*	*	*
2.D\;	.	2.d/;<	.	2d/;<	.	2.ryy	.	2g/	Do	2b\;	Do	2.ryy	2.ryy	2.ryy	2.ryy
.	.	.	.	4f#/m<	.	.	.	4f#/	-mi-	4a\M	-mi-	.	.	.	.
=123	=123	=123	=123	=123	=123	=123	=123	=123	=123	=123	=123	=123	=123	=123	=123
!LO:LB:g=original	!	!	!LO:DY:rj	!	!LO:DY:rj:t=fo	!	!	!	!	!	!	!	!	!	!
8G\L	f	8b\	f	8gg/ 8b/ 8d/ 8G/	f	2.ryy	.	4g/	-ni	4g\	-ni	2.ryy	2.ryy	2.ryy	2.ryy
8GG/	.	4B/	.	4g/	.	.	.	.	.	.	.	.	.	.	.
8BB/	.	.	.	.	.	.	.	4r	.	4r	.	.	.	.	.
8GG/	.	4B/	.	4g/	.	.	.	.	.	.	.	.	.	.	.
8BB/	.	.	.	.	.	.	.	4r	.	4r	.	.	.	.	.
8GG/J	.	8B/	.	8g/	.	.	.	.	.	.	.	.	.	.	.
=124	=124	=124	=124	=124	=124	=124	=124	=124	=124	=124	=124	=124	=124	=124	=124
!	!	!	!	!	!	!	!	!LO:TX:a:t=24	!	!	!	!	!	!	!
!	!	!	!	!	!	!	!	!LO:N:vis=00	!	!LO:N:vis=00	!	!	!	!	!
4D\	.	16d/LL	.	8dd\	.	2.ryy	.	0.r	.	0.r	.	2.ryy	2.ryy	2.ryy	2.ryy
.	.	16f#/J	.	.	.	.	.	.	.	.	.	.	.	.	.
.	.	8a/J	.	4d/	.	.	.	.	.	.	.	.	.	.	.
8D\L	.	8a/L 8f#/	.	.	.	.	.	.	.	.	.	.	.	.	.
8D\	.	8a/ 8f#/	.	4d/	.	.	.	.	.	.	.	.	.	.	.
8F#\	.	8f#/	.	.	.	.	.	.	.	.	.	.	.	.	.
8D\J	.	8d/J	.	8d/	.	.	.	.	.	.	.	.	.	.	.
=125	=125	=125	=125	=125	=125	=125	=125	=125	=125	=125	=125	=125	=125	=125	=125
8C/L	.	8c/	.	8e/	.	2.ryy	.	.	.	.	.	2.ryy	2.ryy	2.ryy	2.ryy
8C/	.	4c/	.	4e/	.	.	.	.	.	.	.	.	.	.	.
8C/	.	.	.	.	.	.	.	.	.	.	.	.	.	.	.
8C/J	.	8c/	.	8e/	.	.	.	.	.	.	.	.	.	.	.
8AA/L	.	8e/L	.	16cc\LL	.	.	.	.	.	.	.	.	.	.	.
.	.	.	.	16a/	.	.	.	.	.	.	.	.	.	.	.
8D\J	.	16d/L	.	16g/	.	.	.	.	.	.	.	.	.	.	.
.	.	16c/JJ	.	16f#/JJ	.	.	.	.	.	.	.	.	.	.	.
=126	=126	=126	=126	=126	=126	=126	=126	=126	=126	=126	=126	=126	=126	=126	=126
!	!	!	!	!LO:LB:g=original	!	!	!	!	!	!	!	!	!	!	!
4G\	.	8B/L	.	16g/LL	.	2.ryy	.	.	.	.	.	2.ryy	2.ryy	2.ryy	2.ryy
.	.	.	.	16d/	.	.	.	.	.	.	.	.	.	.	.
.	.	8g/	.	16b\	.	.	.	.	.	.	.	.	.	.	.
.	.	.	.	16g/JJ	.	.	.	.	.	.	.	.	.	.	.
4G\	.	8b\	.	16dd\LL	.	.	.	.	.	.	.	.	.	.	.
.	.	.	.	16b\	.	.	.	.	.	.	.	.	.	.	.
.	.	8b\	.	16gg\	.	.	.	.	.	.	.	.	.	.	.
.	.	.	.	16dd\JJ	.	.	.	.	.	.	.	.	.	.	.
4G\	.	8b\	.	16bb\LL	.	.	.	.	.	.	.	.	.	.	.
.	.	.	.	16dd\	.	.	.	.	.	.	.	.	.	.	.
.	.	8g/J	.	16cc\	.	.	.	.	.	.	.	.	.	.	.
.	.	.	.	16b\JJ	.	.	.	.	.	.	.	.	.	.	.
=127	=127	=127	=127	=127	=127	=127	=127	=127	=127	=127	=127	=127	=127	=127	=127
!LO:LB:g=original	!	!LO:LB:g=original	!	!	!	!	!	!	!	!	!	!	!	!	!
8C/L	.	16e/LL	.	8e/	.	2.ryy	.	.	.	.	.	2.ryy	2.ryy	2.ryy	2.ryy
.	.	16c/JJ	.	.	.	.	.	.	.	.	.	.	.	.	.
8C/	.	4c/	.	4e/	.	.	.	.	.	.	.	.	.	.	.
8C/	.	.	.	.	.	.	.	.	.	.	.	.	.	.	.
8C/	.	8c/	.	8e/	.	.	.	.	.	.	.	.	.	.	.
8AA/	.	8d/L	.	16cc\LL	.	.	.	.	.	.	.	.	.	.	.
.	.	.	.	16a/	.	.	.	.	.	.	.	.	.	.	.
8D\J	.	16f#/L	.	16g/	.	.	.	.	.	.	.	.	.	.	.
.	.	16a/JJ	.	16f#/JJ	.	.	.	.	.	.	.	.	.	.	.
=128	=128	=128	=128	=128	=128	=128	=128	=128	=128	=128	=128	=128	=128	=128	=128
!LO:TX:a:t=P:problem:mixed beam	!	!	!	!	!	!	!	!LO:N:vis=00	!	!LO:N:vis=00	!	!	!	!	!
8GG/L	.	8.g/L	.	8.g/L	.	2.ryy	.	0.r	.	0.r	.	2.ryy	2.ryy	2.ryy	2.ryy
8G\	.	.	.	.	.	.	.	.	.	.	.	.	.	.	.
.	.	16d/Jk	.	16d/Jk	.	.	.	.	.	.	.	.	.	.	.
8D\	.	4B/	.	4G/	.	.	.	.	.	.	.	.	.	.	.
8BB\J	.	.	.	.	.	.	.	.	.	.	.	.	.	.	.
4GG/	.	4r	.	4r	.	.	.	.	.	.	.	.	.	.	.
=129	=129	=129	=129	=129	=129	=129	=129	=129	=129	=129	=129	=129	=129	=129	=129
8r	.	8r	.	16b\LL	.	2.ryy	.	.	.	.	.	2.ryy	2.ryy	2.ryy	2.ryy
.	.	.	.	16cc#X\	.	.	.	.	.	.	.	.	.	.	.
8G\L	.	8b/L 8g/	.	16dd\	.	.	.	.	.	.	.	.	.	.	.
.	.	.	.	16cc#\JJ	.	.	.	.	.	.	.	.	.	.	.
8G\	.	8b/ 8g/	.	8dd\L	.	.	.	.	.	.	.	.	.	.	.
8G\	.	8b/ 8g/	.	8dd\J	.	.	.	.	.	.	.	.	.	.	.
8G\	.	8b/ 8g/	.	16dd\LL	.	.	.	.	.	.	.	.	.	.	.
.	.	.	.	16b\	.	.	.	.	.	.	.	.	.	.	.
8G\J	.	8b/J 8g/	.	16a\	.	.	.	.	.	.	.	.	.	.	.
.	.	.	.	16g\JJ	.	.	.	.	.	.	.	.	.	.	.
=130	=130	=130	=130	=130	=130	=130	=130	=130	=130	=130	=130	=130	=130	=130	=130
8F#\L	.	8r	.	16a\LL	.	2.ryy	.	.	.	.	.	2.ryy	2.ryy	2.ryy	2.ryy
.	.	.	.	16cc#X\	.	.	.	.	.	.	.	.	.	.	.
8D\	.	8a/L 8f#/	.	16dd\	.	.	.	.	.	.	.	.	.	.	.
.	.	.	.	16cc#\JJ	.	.	.	.	.	.	.	.	.	.	.
8D\	.	8a/ 8f#/	.	8dd\L	.	.	.	.	.	.	.	.	.	.	.
8D\	.	8a/ 8f#/	.	8dd\J	.	.	.	.	.	.	.	.	.	.	.
8D\	.	8a/ 8f#/	.	16dd\LL	.	.	.	.	.	.	.	.	.	.	.
.	.	.	.	16a\	.	.	.	.	.	.	.	.	.	.	.
8D\J	.	8a/J 8f#/	.	16g\	.	.	.	.	.	.	.	.	.	.	.
.	.	.	.	16f#X\JJ	.	.	.	.	.	.	.	.	.	.	.
=131	=131	=131	=131	=131	=131	=131	=131	=131	=131	=131	=131	=131	=131	=131	=131
4AA/	.	8a\L	.	8a\L	.	2.ryy	.	.	.	.	.	2.ryy	2.ryy	2.ryy	2.ryy
.	.	8cc#X\J	.	16cc#X\L	.	.	.	.	.	.	.	.	.	.	.
.	.	.	.	16ee\JJ	.	.	.	.	.	.	.	.	.	.	.
.	.	.	.	8qqaa/	.	.	.	.	.	.	.	.	.	.	.
8C#X/L	.	4ee\	.	4gg\	.	.	.	.	.	.	.	.	.	.	.
8AA/J	.	.	.	.	.	.	.	.	.	.	.	.	.	.	.
8D\L	.	8dd\L	.	8ff#\L	.	.	.	.	.	.	.	.	.	.	.
8d\J	.	8ff#\J	.	16aa\L	.	.	.	.	.	.	.	.	.	.	.
.	.	.	.	16ddd\JJ	.	.	.	.	.	.	.	.	.	.	.
=132	=132	=132	=132	=132	=132	=132	=132	=132	=132	=132	=132	=132	=132	=132	=132
.	.	.	.	8qqgg/	.	.	.	.	.	.	.	.	.	.	.
!	!	!	!	!	!	!	!	!LO:N:vis=00	!	!LO:N:vis=00	!	!	!	!	!
8A\L	.	8dd\L	.	8ff#\L	.	2.ryy	.	0.r	.	0.r	.	2.ryy	2.ryy	2.ryy	2.ryy
8A\	.	8cc#X\J	.	8ee\J	.	.	.	.	.	.	.	.	.	.	.
8E\	.	4cc#\	.	4ee\	.	.	.	.	.	.	.	.	.	.	.
8C#X\J	.	.	.	.	.	.	.	.	.	.	.	.	.	.	.
4AA/	.	4r	.	4r	.	.	.	.	.	.	.	.	.	.	.
=133	=133	=133	=133	=133	=133	=133	=133	=133	=133	=133	=133	=133	=133	=133	=133
.	.	.	.	16qqee/LL	.	.	.	.	.	.	.	.	.	.	.
.	.	.	.	16qqff#/JJ	.	.	.	.	.	.	.	.	.	.	.
!	!	!LO:TX:a:t=P:problem:mixed beam	!LO:DY:rj	!LO:TX:a:t=P:problem:mixed beam	!	!	!	!	!	!	!	!	!	!	!
8r	.	8ee\`L	f	8gg\'L	f	2.ryy	.	.	.	.	.	2.ryy	2.ryy	2.ryy	2.ryy
8AA/L	.	8e/'	p	8g/'	p	.	.	.	.	.	.	.	.	.	.
8C#X/	.	8e/'	.	8g/'	.	.	.	.	.	.	.	.	.	.	.
8AA/	.	8e/'	.	8g/'	.	.	.	.	.	.	.	.	.	.	.
8C#/	.	8e/'	.	8g/'	.	.	.	.	.	.	.	.	.	.	.
8AA/J	.	8e/'J	.	8g/'J	.	.	.	.	.	.	.	.	.	.	.
=134	=134	=134	=134	=134	=134	=134	=134	=134	=134	=134	=134	=134	=134	=134	=134
!	!	!	!	!LO:LB:g=original	!	!	!	!	!	!	!	!	!	!	!
!	!	!	!	!	!LO:DY:rj	!	!	!	!	!	!	!	!	!	!
4D\	.	16d/LL	f	16f#\LL	f	2.ryy	.	.	.	.	.	2.ryy	2.ryy	2.ryy	2.ryy
.	.	16f#/	.	16a\	.	.	.	.	.	.	.	.	.	.	.
.	.	16g/	.	16b\	.	.	.	.	.	.	.	.	.	.	.
.	.	16e/JJ	.	16cc#X\JJ	.	.	.	.	.	.	.	.	.	.	.
!	!	!LO:TX:b:t=P:problem:wykreślony \nprawdopodobnie znak dynamiczny p	!	!	!	!	!	!	!	!	!	!	!	!	!
4r	.	16f#/LL	.	16dd\LL	.	.	.	.	.	.	.	.	.	.	.
.	.	16e/	.	16cc#\	.	.	.	.	.	.	.	.	.	.	.
.	.	16f#/	.	16dd\	.	.	.	.	.	.	.	.	.	.	.
.	.	16a/JJ	.	16ee\JJ	.	.	.	.	.	.	.	.	.	.	.
4D\	.	16dd\LL	.	16ff#\LL	.	.	.	.	.	.	.	.	.	.	.
.	.	16cc#X\	.	16ee\	.	.	.	.	.	.	.	.	.	.	.
.	.	16dd\	.	16ff#\	.	.	.	.	.	.	.	.	.	.	.
.	.	16ff#\JJ	.	16aa\JJ	.	.	.	.	.	.	.	.	.	.	.
=135	=135	=135	=135	=135	=135	=135	=135	=135	=135	=135	=135	=135	=135	=135	=135
!	!	!LO:LB:g=original	!	!	!	!	!	!	!	!	!	!	!	!	!
!	!	!	!	!	!LO:DY:rj	!	!	!	!	!	!	!	!	!	!
.	.	16qqcc/LL	.	16qqee/LL	f	.	.	.	.	.	.	.	.	.	.
.	.	16qqdd/JJ	.	16qqff#/JJ	.	.	.	.	.	.	.	.	.	.	.
!LO:TX:a:t=P:problem:mixed beam	!	!LO:TX:a:t=P:problem:mixed beam	!	!LO:TX:a:t=P:problem:mixed beam	!	!	!	!	!	!	!	!	!	!	!
8A\L	.	8ee\L	f	8gg\'L	.	2.ryy	.	.	.	.	.	2.ryy	2.ryy	2.ryy	2.ryy
8AA/	.	8e/	p	8g/'	p	.	.	.	.	.	.	.	.	.	.
8C#X/	.	8e/	.	8g/'	.	.	.	.	.	.	.	.	.	.	.
8AA/	.	8e/	.	8g/'	.	.	.	.	.	.	.	.	.	.	.
8C#/	.	8e/	.	8g/'	.	.	.	.	.	.	.	.	.	.	.
8AA/J	.	8e/J	.	8g/'J	.	.	.	.	.	.	.	.	.	.	.
=136	=136	=136	=136	=136	=136	=136	=136	=136	=136	=136	=136	=136	=136	=136	=136
!	!	!	!	!	!LO:DY:rj	!	!	!LO:N:vis=00	!	!LO:N:vis=00	!	!	!	!	!
4D\	.	16d/LL	.	16f#\LL	f	2.ryy	.	0.r	.	0.r	.	2.ryy	2.ryy	2.ryy	2.ryy
.	.	16f#/	.	16a\	.	.	.	.	.	.	.	.	.	.	.
.	.	16g/	.	16b\	.	.	.	.	.	.	.	.	.	.	.
.	.	16e/JJ	.	16cc#X\JJ	.	.	.	.	.	.	.	.	.	.	.
4r	.	16f#\LL	.	16dd\LL	.	.	.	.	.	.	.	.	.	.	.
.	.	16cc#X\	.	16ee\	.	.	.	.	.	.	.	.	.	.	.
.	.	16dd\	.	16ff#\	.	.	.	.	.	.	.	.	.	.	.
.	.	16ee\JJ	.	16gg\JJ	.	.	.	.	.	.	.	.	.	.	.
4D\	.	16ff#\LL	.	16aa\LL	.	.	.	.	.	.	.	.	.	.	.
.	.	16gg\	.	16bb\	.	.	.	.	.	.	.	.	.	.	.
.	.	16ee\	.	16ccc#X\	.	.	.	.	.	.	.	.	.	.	.
.	.	16ff#\JJ	.	16ddd\JJ	.	.	.	.	.	.	.	.	.	.	.
=137	=137	=137	=137	=137	=137	=137	=137	=137	=137	=137	=137	=137	=137	=137	=137
!	!	!LO:TX:a:t=P:problem:mixed beam	!	!	!	!	!	!	!	!	!	!	!	!	!
8G\L	.	8gg\L	.	16aa#X\LL	.	2.ryy	.	.	.	.	.	2.ryy	2.ryy	2.ryy	2.ryy
.	.	.	.	16bb\	.	.	.	.	.	.	.	.	.	.	.
8B\J	.	16b/L	.	16gg\	.	.	.	.	.	.	.	.	.	.	.
.	.	16g/JJ	.	16ee\JJ	.	.	.	.	.	.	.	.	.	.	.
!LO:TX:a:t=P:problem:mixed beam	!	!	!	!	!	!	!	!	!	!	!	!	!	!	!
8A\L	.	8.f#/L	.	8.dd\L	.	.	.	.	.	.	.	.	.	.	.
8A\	.	.	.	.	.	.	.	.	.	.	.	.	.	.	.
.	.	16g/Jk	.	16ee\Jk	.	.	.	.	.	.	.	.	.	.	.
8AA/	.	4g/M<	.	4ee\M	.	.	.	.	.	.	.	.	.	.	.
8AA/J	.	.	.	.	.	.	.	.	.	.	.	.	.	.	.
=138	=138	=138	=138	=138	=138	=138	=138	=138	=138	=138	=138	=138	=138	=138	=138
!LO:LB:g=original	!	!	!	!	!	!	!	!	!	!	!	!	!	!	!
8D\L	.	4f#/	.	4dd\	.	2.ryy	.	.	.	.	.	2.ryy	2.ryy	2.ryy	2.ryy
8AA/J	.	.	.	.	.	.	.	.	.	.	.	.	.	.	.
4DD/	.	4f#/	.	4d/	.	.	.	.	.	.	.	.	.	.	.
4r	.	4r	.	4r	.	.	.	.	.	.	.	.	.	.	.
=139	=139	=139	=139	=139	=139	=139	=139	=139	=139	=139	=139	=139	=139	=139	=139
8r	.	16b\LL	.	16dd\LL	.	2.ryy	.	.	.	.	.	2.ryy	2.ryy	2.ryy	2.ryy
.	.	16a\J	.	16ccn\J	.	.	.	.	.	.	.	.	.	.	.
8D\L	.	8a\J	.	8cc\J	.	.	.	.	.	.	.	.	.	.	.
8F#\	.	8a\L	.	8cc\L	.	.	.	.	.	.	.	.	.	.	.
8D\	.	8a\J	.	8cc\J	.	.	.	.	.	.	.	.	.	.	.
8F#\	.	16cc\LL	.	16aa\LL	.	.	.	.	.	.	.	.	.	.	.
.	.	16a\J	.	16cc\J	.	.	.	.	.	.	.	.	.	.	.
8D\J	.	8a\J	.	8cc\J	.	.	.	.	.	.	.	.	.	.	.
=140	=140	=140	=140	=140	=140	=140	=140	=140	=140	=140	=140	=140	=140	=140	=140
!	!	!	!	!	!	!	!	!LO:N:vis=00	!	!LO:N:vis=00	!	!	!	!	!
8r	.	16a\LL	.	16cc\LL	.	2.ryy	.	0.r	.	0.r	.	2.ryy	2.ryy	2.ryy	2.ryy
.	.	16g\J	.	16b\J	.	.	.	.	.	.	.	.	.	.	.
8G\L	.	8g\J	.	8b\J	.	.	.	.	.	.	.	.	.	.	.
8B\	.	8g\L	.	8b\L	.	.	.	.	.	.	.	.	.	.	.
8G\	.	8g\J	.	8b\J	.	.	.	.	.	.	.	.	.	.	.
8B\	.	16g\LL	.	(16b\LL	.	.	.	.	.	.	.	.	.	.	.
.	.	16b\J	.	16dd\J)	.	.	.	.	.	.	.	.	.	.	.
8G\J	.	8b\J	.	8gg\J	.	.	.	.	.	.	.	.	.	.	.
=141	=141	=141	=141	=141	=141	=141	=141	=141	=141	=141	=141	=141	=141	=141	=141
8r	.	16b\LL	.	(16dd\LL	.	2.ryy	.	.	.	.	.	2.ryy	2.ryy	2.ryy	2.ryy
.	.	16a\J	.	16ccn\J)	.	.	.	.	.	.	.	.	.	.	.
8D\L	.	8a\J	.	8cc\J	.	.	.	.	.	.	.	.	.	.	.
8F#\	.	8a\L	.	8cc\L	.	.	.	.	.	.	.	.	.	.	.
8D\	.	8a\J	.	8cc\J	.	.	.	.	.	.	.	.	.	.	.
8F#\	.	16cc\LL	.	(16aa\LL	.	.	.	.	.	.	.	.	.	.	.
.	.	16a\J	.	16cc\J)	.	.	.	.	.	.	.	.	.	.	.
8D\J	.	8a\J	.	8cc\J	.	.	.	.	.	.	.	.	.	.	.
=142	=142	=142	=142	=142	=142	=142	=142	=142	=142	=142	=142	=142	=142	=142	=142
!	!	!LO:LB:g=original	!	!LO:LB:g=original	!	!	!	!	!	!	!	!	!	!	!
8r	.	16a\LL	.	(16cc\LL	.	2.ryy	.	.	.	.	.	2.ryy	2.ryy	2.ryy	2.ryy
.	.	16g\J	.	16b\J)	.	.	.	.	.	.	.	.	.	.	.
8G\L	.	8g\J	.	8b\J	.	.	.	.	.	.	.	.	.	.	.
8B\	.	8g\L	.	8b\L	.	.	.	.	.	.	.	.	.	.	.
8G\	.	8g\J	.	8b\J	.	.	.	.	.	.	.	.	.	.	.
8B\	.	16g\LL	.	(16b\LL	.	.	.	.	.	.	.	.	.	.	.
.	.	16b\J	.	16dd\J)	.	.	.	.	.	.	.	.	.	.	.
8G\J	.	8b\J	.	8gg\J	.	.	.	.	.	.	.	.	.	.	.
=143	=143	=143	=143	=143	=143	=143	=143	=143	=143	=143	=143	=143	=143	=143	=143
4C/	.	8cc\L	.	16dd#X\LL	.	2.ryy	.	.	.	.	.	2.ryy	2.ryy	2.ryy	2.ryy
.	.	.	.	16ee\	.	.	.	.	.	.	.	.	.	.	.
.	.	8a\J	.	16cc\	.	.	.	.	.	.	.	.	.	.	.
.	.	.	.	16a\JJ	.	.	.	.	.	.	.	.	.	.	.
4D/	.	8g/L	.	8.g/L	.	.	.	.	.	.	.	.	.	.	.
.	.	8f#/J	.	.	.	.	.	.	.	.	.	.	.	.	.
.	.	.	.	16a/Jk	.	.	.	.	.	.	.	.	.	.	.
4DD/	.	8f#/L	.	4a/M<	.	.	.	.	.	.	.	.	.	.	.
.	.	8c/J	.	.	.	.	.	.	.	.	.	.	.	.	.
=144	=144	=144	=144	=144	=144	=144	=144	=144	=144	=144	=144	=144	=144	=144	=144
!	!	!	!	!	!	!	!	!LO:N:vis=00	!	!LO:N:vis=0	!	!	!	!	!
8GG/	.	8B/L	.	8g/L	.	2.ryy	.	0.r	.	1.r	.	2.ryy	2.ryy	2.ryy	2.ryy
8r	.	8c/	.	8e/	.	.	.	.	.	.	.	.	.	.	.
4r	.	8c/	.	8e/	.	.	.	.	.	.	.	.	.	.	.
.	.	8c/J	.	8e/J	.	.	.	.	.	.	.	.	.	.	.
.	.	.	.	8qqg/	.	.	.	.	.	.	.	.	.	.	.
8C/L	.	8.A/L	.	8f#/L	.	.	.	.	.	.	.	.	.	.	.
8D\J	.	.	.	16e/L	.	.	.	.	.	.	.	.	.	.	.
.	.	32G/LL	.	16f#/JJ	.	.	.	.	.	.	.	.	.	.	.
.	.	32A/JJJ	.	.	.	.	.	.	.	.	.	.	.	.	.
=145	=145	=145	=145	=145	=145	=145	=145	=145	=145	=145	=145	=145	=145	=145	=145
4GG/	.	8B/L	.	8g/L	.	2.ryy	.	.	.	.	.	2.ryy	2.ryy	2.ryy	2.ryy
.	.	8c/	.	8e/	.	.	.	.	.	.	.	.	.	.	.
4r	.	8c/	.	8e/	.	.	.	.	.	.	.	.	.	.	.
.	.	8c/J	.	8e/J	.	.	.	.	.	.	.	.	.	.	.
.	.	.	.	8qqg/	.	.	.	.	.	.	.	.	.	.	.
8C/L	.	8.A/L	.	8f#/L	.	.	.	.	.	.	.	.	.	.	.
8D\J	.	.	.	16e/L	.	.	.	.	.	.	.	.	.	.	.
.	.	32G/LL	.	16f#/JJ	.	.	.	.	.	.	.	.	.	.	.
.	.	32A/JJJ	.	.	.	.	.	.	.	.	.	.	.	.	.
=146	=146	=146	=146	=146	=146	=146	=146	=146	=146	=146	=146	=146	=146	=146	=146
!	!	!	!	!	!	!	!	!	!	!LO:N:vis=1	!	!	!	!	!
4G\	.	8B/L	.	8g/L	.	2.ryy	.	.	.	2.r	.	2.ryy	2.ryy	2.ryy	2.ryy
.	.	8c/	.	8e/	.	.	.	.	.	.	.	.	.	.	.
4GG/	.	8c/	.	8e/	.	.	.	.	.	.	.	.	.	.	.
.	.	8B/	.	8d/	.	.	.	.	.	.	.	.	.	.	.
4D/	.	8B/	.	8d/	.	.	.	.	.	.	.	.	.	.	.
.	.	8A/J	.	8c/J	.	.	.	.	.	.	.	.	.	.	.
=147	=147	=147	=147	=147	=147	=147	=147	=147	=147	=147	=147	=147	=147	=147	=147
.	.	.	.	8qqd/	.	.	.	.	.	.	.	.	.	.	.
!	!	!	!	!	!	!	!	!	!	!LO:TX:a:t=P:problem:jeden takt pauzy za dużo	!	!	!	!	!
8G\L	.	8A/L	.	8c/L	.	2.ryy	.	.	.	2.ryy	.	2.ryy	2.ryy	2.ryy	2.ryy
8D\J	.	8G/J	.	8B/J	.	.	.	.	.	.	.	.	.	.	.
4GG/	.	4G/	.	4B/	.	.	.	.	.	.	.	.	.	.	.
4r	.	4r	.	4r	.	.	.	.	.	.	.	.	.	.	.
==	==	==	==	==	==	==	==	==	==	==	==	==	==	==	==
*-	*-	*-	*-	*-	*-	*-	*-	*-	*-	*-	*-	*-	*-	*-	*-
!!!system-decoration: [g1][g2][g3][g4]
!!!RDF**kern: > = above
!!!RDF**kern: < = below
!!!ENC: Andrzej Gręziak
!!!END: 2020-04-19
!!!ENC: Marta Lawrence
!!!END: 2020-06-20
